;This Gcode has been generated specifically for the LulzBot Mini
;Basic settings: Layer height: 0.38 Walls: 1 Fill: 20
;Filament Diameter: 2.85
;Nozzle Size: 0.5
G21                          ; metric values
G90                          ; absolute positioning
M82                          ; set extruder to absolute mode
M107                         ; start with the fan off
G92 E0                       ; set extruder position to 0
M140 S60; get bed heating up
G28                          ; home all
M109 S140                    ; set to cleaning temp and wait
G1 Z150 E-30 F75             ; suck up XXmm of filament
M109 S140                    ; heat up rest of way
G1 X45 Y174 F11520           ; move behind scraper
G1 Z0  F1200                 ; CRITICAL: set Z to height of top of scraper
G1 X45 Y174 Z-.5 F4000       ; wiping ; plunge into wipe pad
G1 X55 Y172 Z-.5 F4000       ; wiping
G1 X45 Y174 Z0 F4000         ; wiping
G1 X55 Y172 F4000            ; wiping
G1 X45 Y174 F4000            ; wiping
G1 X55 Y172 F4000            ; wiping
G1 X45 Y174 F4000            ; wiping
G1 X55 Y172 F4000            ; wiping
G1 X60 Y174 F4000            ; wiping
G1 X80 Y172 F4000            ; wiping
G1 X60 Y174 F4000            ; wiping
G1 X80 Y172 F4000            ; wiping
G1 X60 Y174 F4000            ; wiping
G1 X90 Y172 F4000            ; wiping
G1 X80 Y174 F4000            ; wiping
G1 X100 Y172 F4000           ; wiping
G1 X80 Y174 F4000            ; wiping
G1 X100 Y172 F4000           ; wiping
G1 X80 Y174 F4000            ; wiping
G1 X100 Y172 F4000           ; wiping
G1 X110 Y174 F4000           ; wiping
G1 X100 Y172 F4000           ; wiping
G1 X110 Y174 F4000           ; wiping
G1 X100 Y172 F4000           ; wiping
G1 X110 Y174 F4000           ; wiping
G1 X115 Y172 Z-0.5 F1000     ; wipe slower and bury noz in cleanish area
G1 Z10                       ; raise z
G28 X0 Y0                    ; home x and y
M109 S140                    ; set to probing temp
M204 S300                    ; Set probing acceleration
G29                          ; Probe
M204 S2000                   ; Restore standard acceleration
G1 X5 Y15 Z10 F5000          ; get out the way
G4 S1                        ; pause
M400                         ; clear buffer
M109 S205    ; set extruder temp and wait
G4 S15                       ; wait for bed to temp up
G1 Z2 E0 F75                 ; extrude filament back into nozzle
M140 S60; get bed temping up during first layer

;Layer count: 24
;LAYER:0
M107
G0 F10500 X38.128 Y60.630 Z0.425
;TYPE:SKIRT
G1 F900 X121.872 Y60.630 E3.48693
G1 X121.872 Y95.370 E4.93343
G1 X38.128 Y95.370 E8.42036
G1 X38.128 Y60.630 E9.86686
G0 F10500 X38.753 Y61.255
G1 F900 X121.247 Y61.255 E13.30174
G1 X121.247 Y94.745 E14.69620
G1 X38.753 Y94.745 E18.13108
G1 X38.753 Y61.255 E19.52553
G1 F600 E18.02553
G1 Z0.525
G0 F10500 X43.002 Y65.504
;TYPE:WALL-INNER
G1 Z0.425
G1 F600 E19.52553
G1 F900 X116.998 Y65.504 E22.60658
G1 X116.998 Y90.496 E23.64719
G1 X43.002 Y90.496 E26.72823
G1 X43.002 Y65.504 E27.76885
G0 F10500 X42.377 Y64.879
;TYPE:WALL-OUTER
G1 F900 X117.623 Y64.879 E30.90194
G1 X117.623 Y91.121 E31.99460
G1 X42.377 Y91.121 E35.12769
G1 X42.377 Y64.879 E36.22035
G0 F10500 X43.221 Y65.760
;TYPE:SKIN
G1 F900 X67.736 Y90.276 E37.66395
G0 F10500 X66.852 Y90.276
G1 F900 X43.221 Y66.644 E39.05549
G0 F10500 X43.221 Y67.528
G1 F900 X65.968 Y90.276 E40.39497
G0 F10500 X65.084 Y90.276
G1 F900 X43.221 Y68.412 E41.68240
G0 F10500 X43.221 Y69.296
G1 F900 X64.201 Y90.276 E42.91781
G0 F10500 X63.317 Y90.276
G1 F900 X43.221 Y70.180 E44.10116
G0 F10500 X43.221 Y71.064
G1 F900 X62.433 Y90.276 E45.23246
G0 F10500 X61.549 Y90.276
G1 F900 X43.221 Y71.948 E46.31170
G0 F10500 X43.221 Y72.831
G1 F900 X60.665 Y90.276 E47.33892
G0 F10500 X68.620 Y90.276
G1 F900 X44.066 Y65.722 E48.78478
G0 F10500 X44.950 Y65.722
G1 F900 X69.504 Y90.276 E50.23064
G0 F10500 X70.388 Y90.276
G1 F900 X45.834 Y65.722 E51.67651
G0 F10500 X46.718 Y65.722
G1 F900 X71.272 Y90.276 E53.12237
G0 F10500 X72.156 Y90.276
G1 F900 X47.602 Y65.722 E54.56823
G0 F10500 X48.486 Y65.722
G1 F900 X73.039 Y90.276 E56.01406
G0 F10500 X73.923 Y90.276
G1 F900 X49.370 Y65.722 E57.45989
G0 F10500 X50.254 Y65.722
G1 F900 X74.807 Y90.276 E58.90572
G0 F10500 X75.691 Y90.276
G1 F900 X51.137 Y65.722 E60.35158
G0 F10500 X52.021 Y65.722
G1 F900 X76.575 Y90.276 E61.79745
G0 F10500 X77.459 Y90.276
G1 F900 X52.905 Y65.722 E63.24331
G0 F10500 X53.789 Y65.722
G1 F900 X78.343 Y90.276 E64.68917
G0 F10500 X79.227 Y90.276
G1 F900 X54.673 Y65.722 E66.13503
G0 F10500 X55.557 Y65.722
G1 F900 X80.110 Y90.276 E67.58086
G0 F10500 X80.994 Y90.276
G1 F900 X56.441 Y65.722 E69.02669
G0 F10500 X57.325 Y65.722
G1 F900 X81.878 Y90.276 E70.47252
G0 F10500 X82.762 Y90.276
G1 F900 X58.209 Y65.722 E71.91836
G0 F10500 X59.092 Y65.722
G1 F900 X83.646 Y90.276 E73.36422
G0 F10500 X84.530 Y90.276
G1 F900 X59.976 Y65.722 E74.81008
G0 F10500 X43.221 Y73.715
G1 F900 X59.781 Y90.276 E75.78524
G0 F10500 X58.897 Y90.276
G1 F900 X43.221 Y74.599 E76.70835
G0 F10500 X43.221 Y75.483
G1 F900 X58.013 Y90.276 E77.57941
G0 F10500 X57.129 Y90.276
G1 F900 X43.221 Y76.367 E78.39841
G0 F10500 X43.221 Y77.251
G1 F900 X56.246 Y90.276 E79.16539
G0 F10500 X55.362 Y90.276
G1 F900 X43.221 Y78.135 E79.88031
G0 F10500 X43.221 Y79.019
G1 F900 X54.478 Y90.276 E80.54318
G0 F10500 X53.594 Y90.276
G1 F900 X43.221 Y79.903 E81.15399
G0 F10500 X43.221 Y80.786
G1 F900 X52.710 Y90.276 E81.71278
G0 F10500 X51.826 Y90.276
G1 F900 X43.221 Y81.670 E82.21951
G0 F10500 X43.221 Y82.554
G1 F900 X50.942 Y90.276 E82.67419
G0 F10500 X50.058 Y90.276
G1 F900 X43.221 Y83.438 E83.07682
G0 F10500 X43.221 Y84.322
G1 F900 X49.175 Y90.276 E83.42742
G0 F10500 X48.291 Y90.276
G1 F900 X43.221 Y85.206 E83.72597
G0 F10500 X43.221 Y86.090
G1 F900 X47.407 Y90.276 E83.97246
G0 F10500 X46.523 Y90.276
G1 F900 X43.221 Y86.974 E84.16690
G0 F10500 X43.221 Y87.858
G1 F900 X45.639 Y90.276 E84.30928
G0 F10500 X44.755 Y90.276
G1 F900 X43.221 Y88.741 E84.39964
G0 F10500 X43.221 Y89.625
G1 F900 X43.871 Y90.276 E84.43795
G0 F10500 X60.860 Y65.722
G1 F900 X85.414 Y90.276 E85.88381
G0 F10500 X86.298 Y90.276
G1 F900 X61.744 Y65.722 E87.32967
G0 F10500 X62.628 Y65.722
G1 F900 X87.182 Y90.276 E88.77553
G0 F10500 X88.065 Y90.276
G1 F900 X63.512 Y65.722 E90.22136
G0 F10500 X64.396 Y65.722
G1 F900 X88.949 Y90.276 E91.66719
G0 F10500 X89.833 Y90.276
G1 F900 X65.280 Y65.722 E93.11302
G0 F10500 X66.163 Y65.722
G1 F900 X90.717 Y90.276 E94.55889
G0 F10500 X91.601 Y90.276
G1 F900 X67.047 Y65.722 E96.00475
G0 F10500 X67.931 Y65.722
G1 F900 X92.485 Y90.276 E97.45061
G0 F10500 X93.369 Y90.276
G1 F900 X68.815 Y65.722 E98.89647
G0 F10500 X69.699 Y65.722
G1 F900 X94.253 Y90.276 E100.34233
G0 F10500 X95.136 Y90.276
G1 F900 X70.583 Y65.722 E101.78816
G0 F10500 X71.467 Y65.722
G1 F900 X96.020 Y90.276 E103.23399
G0 F10500 X96.904 Y90.276
G1 F900 X72.351 Y65.722 E104.67983
G0 F10500 X73.235 Y65.722
G1 F900 X97.788 Y90.276 E106.12566
G0 F10500 X98.672 Y90.276
G1 F900 X74.118 Y65.722 E107.57152
G0 F10500 X75.002 Y65.722
G1 F900 X99.556 Y90.276 E109.01738
G0 F10500 X100.440 Y90.276
G1 F900 X75.886 Y65.722 E110.46324
G0 F10500 X76.770 Y65.722
G1 F900 X101.324 Y90.276 E111.90910
G0 F10500 X102.208 Y90.276
G1 F900 X77.654 Y65.722 E113.35496
G0 F10500 X78.538 Y65.722
G1 F900 X103.091 Y90.276 E114.80079
G0 F10500 X103.975 Y90.276
G1 F900 X79.422 Y65.722 E116.24663
G0 F10500 X80.306 Y65.722
G1 F900 X104.859 Y90.276 E117.69246
G0 F10500 X105.743 Y90.276
G1 F900 X81.190 Y65.722 E119.13829
G0 F10500 X82.073 Y65.722
G1 F900 X106.627 Y90.276 E120.58415
G0 F10500 X107.511 Y90.276
G1 F900 X82.957 Y65.722 E122.03001
G0 F10500 X83.841 Y65.722
G1 F900 X108.395 Y90.276 E123.47587
G0 F10500 X109.279 Y90.276
G1 F900 X84.725 Y65.722 E124.92173
G0 F10500 X85.609 Y65.722
G1 F900 X110.162 Y90.276 E126.36757
G0 F10500 X111.046 Y90.276
G1 F900 X86.493 Y65.722 E127.81340
G0 F10500 X87.377 Y65.722
G1 F900 X111.930 Y90.276 E129.25923
G0 F10500 X112.814 Y90.276
G1 F900 X88.261 Y65.722 E130.70506
G0 F10500 X89.144 Y65.722
G1 F900 X113.698 Y90.276 E132.15092
G0 F10500 X114.582 Y90.276
G1 F900 X90.028 Y65.722 E133.59678
G0 F10500 X90.912 Y65.722
G1 F900 X115.466 Y90.276 E135.04264
G0 F10500 X116.350 Y90.276
G1 F900 X91.796 Y65.722 E136.48851
G0 F10500 X92.680 Y65.722
G1 F900 X116.778 Y89.820 E137.90752
G0 F10500 X116.778 Y88.937
G1 F900 X93.564 Y65.722 E139.27450
G0 F10500 X94.448 Y65.722
G1 F900 X116.778 Y88.053 E140.58943
G0 F10500 X116.778 Y87.169
G1 F900 X95.332 Y65.722 E141.85231
G0 F10500 X96.216 Y65.722
G1 F900 X116.778 Y86.285 E143.06313
G0 F10500 X116.778 Y85.401
G1 F900 X97.099 Y65.722 E144.22193
G0 F10500 X97.983 Y65.722
G1 F900 X116.778 Y84.517 E145.32867
G0 F10500 X116.778 Y83.633
G1 F900 X98.867 Y65.722 E146.38336
G0 F10500 X99.751 Y65.722
G1 F900 X116.778 Y82.749 E147.38599
G0 F10500 X116.778 Y81.865
G1 F900 X100.635 Y65.722 E148.33657
G0 F10500 X101.519 Y65.722
G1 F900 X116.778 Y80.982 E149.23513
G0 F10500 X116.778 Y80.098
G1 F900 X102.403 Y65.722 E150.08163
G0 F10500 X103.287 Y65.722
G1 F900 X116.778 Y79.214 E150.87607
G0 F10500 X116.778 Y78.330
G1 F900 X104.170 Y65.722 E151.61849
G0 F10500 X105.054 Y65.722
G1 F900 X116.778 Y77.446 E152.30886
G0 F10500 X116.778 Y76.562
G1 F900 X105.938 Y65.722 E152.94717
G0 F10500 X106.822 Y65.722
G1 F900 X116.778 Y75.678 E153.53343
G0 F10500 X116.778 Y74.794
G1 F900 X107.706 Y65.722 E154.06764
G0 F10500 X108.590 Y65.722
G1 F900 X116.778 Y73.911 E154.54982
G0 F10500 X116.778 Y73.027
G1 F900 X109.474 Y65.722 E154.97994
G0 F10500 X110.358 Y65.722
G1 F900 X116.778 Y72.143 E155.35801
G0 F10500 X116.778 Y71.259
G1 F900 X111.242 Y65.722 E155.68403
G0 F10500 X112.125 Y65.722
G1 F900 X116.778 Y70.375 E155.95802
G0 F10500 X116.778 Y69.491
G1 F900 X113.009 Y65.722 E156.17996
G0 F10500 X113.893 Y65.722
G1 F900 X116.778 Y68.607 E156.34984
G0 F10500 X116.778 Y67.723
G1 F900 X114.777 Y65.722 E156.46767
G0 F10500 X115.661 Y65.722
G1 F900 X116.778 Y66.839 E156.53344
G0 F10500 X116.778 Y65.956
G1 F900 X116.545 Y65.722 E156.54719
;LAYER:1
M106 S191
G0 F10500 X117.185 Y65.317 Z0.805
;TYPE:WALL-INNER
G1 F1140 X117.185 Y90.683 E157.30268
G1 X42.815 Y90.683 E159.51767
G1 X42.815 Y65.317 E160.27316
G1 X117.185 Y65.317 E162.48815
G0 F10500 X117.685 Y64.817
;TYPE:WALL-OUTER
G1 F1080 X117.685 Y91.183 E163.27341
G1 X42.315 Y91.183 E165.51819
G1 X42.315 Y64.817 E166.30346
G1 X117.685 Y64.817 E168.54823
G0 F10500 X117.009 Y65.777
;TYPE:SKIN
G1 F1380 X92.278 Y90.508 E169.58990
G0 F10500 X92.985 Y90.508
G1 F1380 X117.009 Y66.485 E170.60177
G0 F10500 X117.009 Y67.192
G1 F1380 X93.693 Y90.508 E171.58384
G0 F10500 X94.400 Y90.508
G1 F1380 X117.009 Y67.899 E172.53614
G0 F10500 X117.009 Y68.606
G1 F1380 X95.107 Y90.508 E173.45865
G0 F10500 X95.814 Y90.508
G1 F1380 X117.009 Y69.313 E174.35138
G0 F10500 X117.009 Y70.020
G1 F1380 X96.521 Y90.508 E175.21434
G0 F10500 X97.228 Y90.508
G1 F1380 X117.009 Y70.727 E176.04752
G0 F10500 X117.009 Y71.434
G1 F1380 X97.935 Y90.508 E176.85091
G0 F10500 X98.642 Y90.508
G1 F1380 X117.009 Y72.141 E177.62453
G0 F10500 X117.009 Y72.848
G1 F1380 X99.349 Y90.508 E178.36837
G0 F10500 X91.571 Y90.508
G1 F1380 X116.588 Y65.491 E179.42209
G0 F10500 X115.881 Y65.491
G1 F1380 X90.864 Y90.508 E180.47581
G0 F10500 X90.157 Y90.508
G1 F1380 X115.174 Y65.491 E181.52953
G0 F10500 X114.467 Y65.491
G1 F1380 X89.450 Y90.508 E182.58324
G0 F10500 X88.743 Y90.508
G1 F1380 X113.760 Y65.491 E183.63696
G0 F10500 X113.052 Y65.491
G1 F1380 X88.036 Y90.508 E184.69066
G0 F10500 X87.329 Y90.508
G1 F1380 X112.345 Y65.491 E185.74436
G0 F10500 X111.638 Y65.491
G1 F1380 X86.621 Y90.508 E186.79807
G0 F10500 X85.914 Y90.508
G1 F1380 X110.931 Y65.491 E187.85179
G0 F10500 X110.224 Y65.491
G1 F1380 X85.207 Y90.508 E188.90551
G0 F10500 X84.500 Y90.508
G1 F1380 X109.517 Y65.491 E189.95923
G0 F10500 X108.810 Y65.491
G1 F1380 X83.793 Y90.508 E191.01294
G0 F10500 X83.086 Y90.508
G1 F1380 X108.103 Y65.491 E192.06666
G0 F10500 X107.396 Y65.491
G1 F1380 X82.379 Y90.508 E193.12038
G0 F10500 X81.672 Y90.508
G1 F1380 X106.688 Y65.491 E194.17407
G0 F10500 X105.981 Y65.491
G1 F1380 X80.965 Y90.508 E195.22777
G0 F10500 X80.258 Y90.508
G1 F1380 X105.274 Y65.491 E196.28147
G0 F10500 X104.567 Y65.491
G1 F1380 X79.550 Y90.508 E197.33519
G0 F10500 X78.843 Y90.508
G1 F1380 X103.860 Y65.491 E198.38890
G0 F10500 X103.153 Y65.491
G1 F1380 X78.136 Y90.508 E199.44262
G0 F10500 X77.429 Y90.508
G1 F1380 X102.446 Y65.491 E200.49634
G0 F10500 X101.739 Y65.491
G1 F1380 X76.722 Y90.508 E201.55006
G0 F10500 X76.015 Y90.508
G1 F1380 X101.032 Y65.491 E202.60377
G0 F10500 X100.325 Y65.491
G1 F1380 X75.308 Y90.508 E203.65749
G0 F10500 X74.601 Y90.508
G1 F1380 X99.617 Y65.491 E204.71119
G0 F10500 X98.910 Y65.491
G1 F1380 X73.894 Y90.508 E205.76488
G0 F10500 X73.186 Y90.508
G1 F1380 X98.203 Y65.491 E206.81860
G0 F10500 X97.496 Y65.491
G1 F1380 X72.479 Y90.508 E207.87232
G0 F10500 X71.772 Y90.508
G1 F1380 X96.789 Y65.491 E208.92604
G0 F10500 X96.082 Y65.491
G1 F1380 X71.065 Y90.508 E209.97975
G0 F10500 X70.358 Y90.508
G1 F1380 X95.375 Y65.491 E211.03347
G0 F10500 X94.668 Y65.491
G1 F1380 X69.651 Y90.508 E212.08719
G0 F10500 X68.944 Y90.508
G1 F1380 X93.961 Y65.491 E213.14091
G0 F10500 X93.253 Y65.491
G1 F1380 X68.237 Y90.508 E214.19460
G0 F10500 X67.530 Y90.508
G1 F1380 X92.546 Y65.491 E215.24830
G0 F10500 X91.839 Y65.491
G1 F1380 X66.823 Y90.508 E216.30200
G0 F10500 X66.115 Y90.508
G1 F1380 X91.132 Y65.491 E217.35571
G0 F10500 X90.425 Y65.491
G1 F1380 X65.408 Y90.508 E218.40943
G0 F10500 X64.701 Y90.508
G1 F1380 X89.718 Y65.491 E219.46315
G0 F10500 X89.011 Y65.491
G1 F1380 X63.994 Y90.508 E220.51687
G0 F10500 X63.287 Y90.508
G1 F1380 X88.304 Y65.491 E221.57058
G0 F10500 X87.597 Y65.491
G1 F1380 X62.580 Y90.508 E222.62430
G0 F10500 X61.873 Y90.508
G1 F1380 X86.889 Y65.491 E223.67800
G0 F10500 X86.182 Y65.491
G1 F1380 X61.166 Y90.508 E224.73170
G0 F10500 X60.459 Y90.508
G1 F1380 X85.475 Y65.491 E225.78539
G0 F10500 X84.768 Y65.491
G1 F1380 X59.751 Y90.508 E226.83911
G0 F10500 X59.044 Y90.508
G1 F1380 X84.061 Y65.491 E227.89283
G0 F10500 X83.354 Y65.491
G1 F1380 X58.337 Y90.508 E228.94654
G0 F10500 X57.630 Y90.508
G1 F1380 X82.647 Y65.491 E230.00026
G0 F10500 X81.940 Y65.491
G1 F1380 X56.923 Y90.508 E231.05398
G0 F10500 X56.216 Y90.508
G1 F1380 X81.233 Y65.491 E232.10770
G0 F10500 X80.526 Y65.491
G1 F1380 X55.509 Y90.508 E233.16141
G0 F10500 X54.802 Y90.508
G1 F1380 X79.818 Y65.491 E234.21511
G0 F10500 X79.111 Y65.491
G1 F1380 X54.095 Y90.508 E235.26881
G0 F10500 X53.387 Y90.508
G1 F1380 X78.404 Y65.491 E236.32253
G0 F10500 X77.697 Y65.491
G1 F1380 X52.680 Y90.508 E237.37624
G0 F10500 X51.973 Y90.508
G1 F1380 X76.990 Y65.491 E238.42996
G0 F10500 X76.283 Y65.491
G1 F1380 X51.266 Y90.508 E239.48368
G0 F10500 X50.559 Y90.508
G1 F1380 X75.576 Y65.491 E240.53740
G0 F10500 X74.869 Y65.491
G1 F1380 X49.852 Y90.508 E241.59111
G0 F10500 X49.145 Y90.508
G1 F1380 X74.162 Y65.491 E242.64483
G0 F10500 X73.454 Y65.491
G1 F1380 X48.438 Y90.508 E243.69853
G0 F10500 X47.731 Y90.508
G1 F1380 X72.747 Y65.491 E244.75222
G0 F10500 X72.040 Y65.491
G1 F1380 X47.024 Y90.508 E245.80592
G0 F10500 X46.316 Y90.508
G1 F1380 X71.333 Y65.491 E246.85964
G0 F10500 X70.626 Y65.491
G1 F1380 X45.609 Y90.508 E247.91336
G0 F10500 X44.902 Y90.508
G1 F1380 X69.919 Y65.491 E248.96707
G0 F10500 X69.212 Y65.491
G1 F1380 X44.195 Y90.508 E250.02079
G0 F10500 X43.488 Y90.508
G1 F1380 X68.505 Y65.491 E251.07451
G0 F10500 X67.798 Y65.491
G1 F1380 X42.989 Y90.299 E252.11944
G0 F10500 X42.989 Y89.592
G1 F1380 X67.090 Y65.491 E253.13458
G0 F10500 X66.383 Y65.491
G1 F1380 X42.989 Y88.885 E254.11994
G0 F10500 X42.989 Y88.178
G1 F1380 X65.676 Y65.491 E255.07551
G0 F10500 X64.969 Y65.491
G1 F1380 X42.989 Y87.471 E256.00131
G0 F10500 X42.989 Y86.764
G1 F1380 X64.262 Y65.491 E256.89733
G0 F10500 X63.555 Y65.491
G1 F1380 X42.989 Y86.057 E257.76357
G0 F10500 X42.989 Y85.349
G1 F1380 X62.848 Y65.491 E258.60002
G0 F10500 X62.141 Y65.491
G1 F1380 X42.989 Y84.642 E259.40668
G0 F10500 X42.989 Y83.935
G1 F1380 X61.434 Y65.491 E260.18356
G0 F10500 X60.727 Y65.491
G1 F1380 X42.989 Y83.228 E260.93067
G0 F10500 X42.989 Y82.521
G1 F1380 X60.019 Y65.491 E261.64797
G0 F10500 X59.312 Y65.491
G1 F1380 X42.989 Y81.814 E262.33550
G0 F10500 X42.989 Y81.107
G1 F1380 X58.605 Y65.491 E262.99324
G0 F10500 X57.898 Y65.491
G1 F1380 X42.989 Y80.400 E263.62121
G0 F10500 X42.989 Y79.693
G1 F1380 X57.191 Y65.491 E264.21940
G0 F10500 X56.484 Y65.491
G1 F1380 X42.989 Y78.985 E264.78779
G0 F10500 X42.989 Y78.278
G1 F1380 X55.777 Y65.491 E265.32640
G0 F10500 X55.070 Y65.491
G1 F1380 X42.989 Y77.571 E265.83523
G0 F10500 X42.989 Y76.864
G1 F1380 X54.363 Y65.491 E266.31428
G0 F10500 X53.655 Y65.491
G1 F1380 X42.989 Y76.157 E266.76354
G0 F10500 X42.989 Y75.450
G1 F1380 X52.948 Y65.491 E267.18301
G0 F10500 X52.241 Y65.491
G1 F1380 X42.989 Y74.743 E267.57270
G0 F10500 X42.989 Y74.036
G1 F1380 X51.534 Y65.491 E267.93262
G0 F10500 X50.827 Y65.491
G1 F1380 X42.989 Y73.329 E268.26276
G0 F10500 X42.989 Y72.621
G1 F1380 X50.120 Y65.491 E268.56309
G0 F10500 X49.413 Y65.491
G1 F1380 X42.989 Y71.914 E268.83365
G0 F10500 X42.989 Y71.207
G1 F1380 X48.706 Y65.491 E269.07443
G0 F10500 X47.999 Y65.491
G1 F1380 X42.989 Y70.500 E269.28543
G0 F10500 X42.989 Y69.793
G1 F1380 X47.292 Y65.491 E269.46665
G0 F10500 X46.584 Y65.491
G1 F1380 X42.989 Y69.086 E269.61808
G0 F10500 X42.989 Y68.379
G1 F1380 X45.877 Y65.491 E269.73972
G0 F10500 X45.170 Y65.491
G1 F1380 X42.989 Y67.672 E269.83158
G0 F10500 X42.989 Y66.965
G1 F1380 X44.463 Y65.491 E269.89367
G0 F10500 X43.756 Y65.491
G1 F1380 X42.989 Y66.258 E269.92597
G0 F10500 X100.057 Y90.508
G1 F1380 X117.009 Y73.556 E270.63999
G0 F10500 X117.009 Y74.263
G1 F1380 X100.764 Y90.508 E271.32423
G0 F10500 X101.471 Y90.508
G1 F1380 X117.009 Y74.970 E271.97869
G0 F10500 X117.009 Y75.677
G1 F1380 X102.178 Y90.508 E272.60338
G0 F10500 X102.885 Y90.508
G1 F1380 X117.009 Y76.384 E273.19828
G0 F10500 X117.009 Y77.091
G1 F1380 X103.592 Y90.508 E273.76341
G0 F10500 X104.299 Y90.508
G1 F1380 X117.009 Y77.798 E274.29875
G0 F10500 X117.009 Y78.505
G1 F1380 X105.006 Y90.508 E274.80432
G0 F10500 X105.713 Y90.508
G1 F1380 X117.009 Y79.212 E275.28011
G0 F10500 X117.009 Y79.920
G1 F1380 X106.420 Y90.508 E275.72610
G0 F10500 X107.128 Y90.508
G1 F1380 X117.009 Y80.627 E276.14228
G0 F10500 X117.009 Y81.334
G1 F1380 X107.835 Y90.508 E276.52869
G0 F10500 X108.542 Y90.508
G1 F1380 X117.009 Y82.041 E276.88532
G0 F10500 X117.009 Y82.748
G1 F1380 X109.249 Y90.508 E277.21218
G0 F10500 X109.956 Y90.508
G1 F1380 X117.009 Y83.455 E277.50925
G0 F10500 X117.009 Y84.162
G1 F1380 X110.663 Y90.508 E277.77654
G0 F10500 X111.370 Y90.508
G1 F1380 X117.009 Y84.869 E278.01406
G0 F10500 X117.009 Y85.576
G1 F1380 X112.077 Y90.508 E278.22179
G0 F10500 X112.784 Y90.508
G1 F1380 X117.009 Y86.283 E278.39975
G0 F10500 X117.009 Y86.991
G1 F1380 X113.492 Y90.508 E278.54789
G0 F10500 X114.199 Y90.508
G1 F1380 X117.009 Y87.698 E278.66624
G0 F10500 X117.009 Y88.405
G1 F1380 X114.906 Y90.508 E278.75482
G0 F10500 X115.613 Y90.508
G1 F1380 X117.009 Y89.112 E278.81362
G0 F10500 X117.009 Y89.819
G1 F1380 X116.320 Y90.508 E278.84264
;LAYER:2
G0 F10500 X117.185 Y90.683 Z1.185
;TYPE:WALL-INNER
G1 F1440 X42.815 Y90.683 E281.05763
G1 X42.815 Y65.317 E281.81312
G1 X117.185 Y65.317 E284.02811
G1 X117.185 Y90.683 E284.78359
G0 F10500 X117.685 Y91.183
;TYPE:WALL-OUTER
G1 F1320 X42.315 Y91.183 E287.02837
G1 X42.315 Y64.817 E287.81364
G1 X117.685 Y64.817 E290.05841
G1 X117.685 Y91.183 E290.84368
G0 F10500 X117.009 Y90.492
;TYPE:SKIN
G1 F1920 X92.008 Y65.492 E291.89670
G0 F10500 X91.301 Y65.492
G1 F1920 X116.316 Y90.507 E292.95033
G0 F10500 X115.609 Y90.507
G1 F1920 X90.594 Y65.492 E294.00397
G0 F10500 X89.887 Y65.492
G1 F1920 X114.902 Y90.507 E295.05760
G0 F10500 X114.195 Y90.507
G1 F1920 X89.180 Y65.492 E296.11123
G0 F10500 X88.473 Y65.492
G1 F1920 X113.488 Y90.507 E297.16487
G0 F10500 X112.781 Y90.507
G1 F1920 X87.766 Y65.492 E298.21850
G0 F10500 X87.058 Y65.492
G1 F1920 X112.074 Y90.507 E299.27216
G0 F10500 X111.367 Y90.507
G1 F1920 X86.351 Y65.492 E300.32581
G0 F10500 X85.644 Y65.492
G1 F1920 X110.660 Y90.507 E301.37946
G0 F10500 X109.952 Y90.507
G1 F1920 X84.937 Y65.492 E302.43310
G0 F10500 X84.230 Y65.492
G1 F1920 X109.245 Y90.507 E303.48673
G0 F10500 X108.538 Y90.507
G1 F1920 X83.523 Y65.492 E304.54036
G0 F10500 X82.816 Y65.492
G1 F1920 X107.831 Y90.507 E305.59400
G0 F10500 X107.124 Y90.507
G1 F1920 X82.109 Y65.492 E306.64763
G0 F10500 X81.402 Y65.492
G1 F1920 X106.417 Y90.507 E307.70126
G0 F10500 X105.710 Y90.507
G1 F1920 X80.695 Y65.492 E308.75490
G0 F10500 X92.715 Y65.492
G1 F1920 X117.009 Y89.785 E309.77814
G0 F10500 X117.009 Y89.078
G1 F1920 X93.422 Y65.492 E310.77161
G0 F10500 X94.130 Y65.492
G1 F1920 X117.009 Y88.371 E311.73527
G0 F10500 X117.009 Y87.664
G1 F1920 X94.837 Y65.492 E312.66916
G0 F10500 X95.544 Y65.492
G1 F1920 X117.009 Y86.957 E313.57326
G0 F10500 X117.009 Y86.250
G1 F1920 X96.251 Y65.492 E314.44759
G0 F10500 X96.958 Y65.492
G1 F1920 X117.009 Y85.542 E315.29212
G0 F10500 X117.009 Y84.835
G1 F1920 X97.665 Y65.492 E316.10687
G0 F10500 X98.372 Y65.492
G1 F1920 X117.009 Y84.128 E316.89184
G0 F10500 X117.009 Y83.421
G1 F1920 X99.079 Y65.492 E317.64703
G0 F10500 X99.786 Y65.492
G1 F1920 X117.009 Y82.714 E318.37244
G0 F10500 X117.009 Y82.007
G1 F1920 X100.494 Y65.492 E319.06806
G0 F10500 X101.201 Y65.492
G1 F1920 X117.009 Y81.300 E319.73389
G0 F10500 X117.009 Y80.593
G1 F1920 X101.908 Y65.492 E320.36995
G0 F10500 X102.615 Y65.492
G1 F1920 X117.009 Y79.886 E320.97622
G0 F10500 X117.009 Y79.178
G1 F1920 X103.322 Y65.492 E321.55270
G0 F10500 X104.029 Y65.492
G1 F1920 X117.009 Y78.471 E322.09940
G0 F10500 X117.009 Y77.764
G1 F1920 X104.736 Y65.492 E322.61631
G0 F10500 X105.443 Y65.492
G1 F1920 X117.009 Y77.057 E323.10345
G0 F10500 X117.009 Y76.350
G1 F1920 X106.150 Y65.492 E323.56081
G0 F10500 X106.857 Y65.492
G1 F1920 X117.009 Y75.643 E323.98840
G0 F10500 X117.009 Y74.936
G1 F1920 X107.565 Y65.492 E324.38618
G0 F10500 X108.272 Y65.492
G1 F1920 X117.009 Y74.229 E324.75418
G0 F10500 X117.009 Y73.522
G1 F1920 X108.979 Y65.492 E325.09241
G0 F10500 X109.686 Y65.492
G1 F1920 X117.009 Y72.815 E325.40085
G0 F10500 X117.009 Y72.107
G1 F1920 X110.393 Y65.492 E325.67950
G0 F10500 X111.100 Y65.492
G1 F1920 X117.009 Y71.400 E325.92836
G0 F10500 X117.009 Y70.693
G1 F1920 X111.807 Y65.492 E326.14745
G0 F10500 X112.514 Y65.492
G1 F1920 X117.009 Y69.986 E326.33676
G0 F10500 X117.009 Y69.279
G1 F1920 X113.221 Y65.492 E326.49629
G0 F10500 X113.929 Y65.492
G1 F1920 X117.009 Y68.572 E326.62602
G0 F10500 X117.009 Y67.865
G1 F1920 X114.636 Y65.492 E326.72597
G0 F10500 X115.343 Y65.492
G1 F1920 X117.009 Y67.158 E326.79614
G0 F10500 X117.009 Y66.451
G1 F1920 X116.050 Y65.492 E326.83653
G0 F10500 X116.757 Y65.492
G1 F1920 X117.009 Y65.743 E326.84713
G0 F10500 X105.003 Y90.507
G1 F1920 X79.987 Y65.492 E327.90078
G0 F10500 X79.280 Y65.492
G1 F1920 X104.296 Y90.507 E328.95444
G0 F10500 X103.589 Y90.507
G1 F1920 X78.573 Y65.492 E330.00809
G0 F10500 X77.866 Y65.492
G1 F1920 X102.881 Y90.507 E331.06172
G0 F10500 X102.174 Y90.507
G1 F1920 X77.159 Y65.492 E332.11536
G0 F10500 X76.452 Y65.492
G1 F1920 X101.467 Y90.507 E333.16899
G0 F10500 X100.760 Y90.507
G1 F1920 X75.745 Y65.492 E334.22262
G0 F10500 X75.038 Y65.492
G1 F1920 X100.053 Y90.507 E335.27626
G0 F10500 X99.346 Y90.507
G1 F1920 X74.331 Y65.492 E336.32989
G0 F10500 X73.623 Y65.492
G1 F1920 X98.639 Y90.507 E337.38355
G0 F10500 X97.932 Y90.507
G1 F1920 X72.916 Y65.492 E338.43720
G0 F10500 X72.209 Y65.492
G1 F1920 X97.225 Y90.507 E339.49085
G0 F10500 X96.517 Y90.507
G1 F1920 X71.502 Y65.492 E340.54449
G0 F10500 X70.795 Y65.492
G1 F1920 X95.810 Y90.507 E341.59812
G0 F10500 X95.103 Y90.507
G1 F1920 X70.088 Y65.492 E342.65175
G0 F10500 X69.381 Y65.492
G1 F1920 X94.396 Y90.507 E343.70539
G0 F10500 X93.689 Y90.507
G1 F1920 X68.674 Y65.492 E344.75902
G0 F10500 X67.967 Y65.492
G1 F1920 X92.982 Y90.507 E345.81265
G0 F10500 X92.275 Y90.507
G1 F1920 X67.259 Y65.492 E346.86631
G0 F10500 X66.552 Y65.492
G1 F1920 X91.568 Y90.507 E347.91996
G0 F10500 X90.861 Y90.507
G1 F1920 X65.845 Y65.492 E348.97362
G0 F10500 X65.138 Y65.492
G1 F1920 X90.153 Y90.507 E350.02725
G0 F10500 X89.446 Y90.507
G1 F1920 X64.431 Y65.492 E351.08088
G0 F10500 X63.724 Y65.492
G1 F1920 X88.739 Y90.507 E352.13452
G0 F10500 X88.032 Y90.507
G1 F1920 X63.017 Y65.492 E353.18815
G0 F10500 X62.310 Y65.492
G1 F1920 X87.325 Y90.507 E354.24178
G0 F10500 X86.618 Y90.507
G1 F1920 X61.603 Y65.492 E355.29542
G0 F10500 X60.896 Y65.492
G1 F1920 X85.911 Y90.507 E356.34905
G0 F10500 X85.204 Y90.507
G1 F1920 X60.188 Y65.492 E357.40270
G0 F10500 X59.481 Y65.492
G1 F1920 X84.497 Y90.507 E358.45636
G0 F10500 X83.790 Y90.507
G1 F1920 X58.774 Y65.492 E359.51001
G0 F10500 X58.067 Y65.492
G1 F1920 X83.082 Y90.507 E360.56365
G0 F10500 X82.375 Y90.507
G1 F1920 X57.360 Y65.492 E361.61728
G0 F10500 X56.653 Y65.492
G1 F1920 X81.668 Y90.507 E362.67091
G0 F10500 X80.961 Y90.507
G1 F1920 X55.946 Y65.492 E363.72455
G0 F10500 X55.239 Y65.492
G1 F1920 X80.254 Y90.507 E364.77818
G0 F10500 X79.547 Y90.507
G1 F1920 X54.532 Y65.492 E365.83181
G0 F10500 X53.824 Y65.492
G1 F1920 X78.840 Y90.507 E366.88547
G0 F10500 X78.133 Y90.507
G1 F1920 X53.117 Y65.492 E367.93912
G0 F10500 X52.410 Y65.492
G1 F1920 X77.426 Y90.507 E368.99278
G0 F10500 X76.718 Y90.507
G1 F1920 X51.703 Y65.492 E370.04641
G0 F10500 X50.996 Y65.492
G1 F1920 X76.011 Y90.507 E371.10004
G0 F10500 X75.304 Y90.507
G1 F1920 X50.289 Y65.492 E372.15368
G0 F10500 X49.582 Y65.492
G1 F1920 X74.597 Y90.507 E373.20731
G0 F10500 X73.890 Y90.507
G1 F1920 X48.875 Y65.492 E374.26094
G0 F10500 X48.168 Y65.492
G1 F1920 X73.183 Y90.507 E375.31458
G0 F10500 X72.476 Y90.507
G1 F1920 X47.461 Y65.492 E376.36821
G0 F10500 X46.753 Y65.492
G1 F1920 X71.769 Y90.507 E377.42186
G0 F10500 X71.062 Y90.507
G1 F1920 X46.046 Y65.492 E378.47552
G0 F10500 X45.339 Y65.492
G1 F1920 X70.355 Y90.507 E379.52917
G0 F10500 X69.647 Y90.507
G1 F1920 X44.632 Y65.492 E380.58281
G0 F10500 X43.925 Y65.492
G1 F1920 X68.940 Y90.507 E381.63644
G0 F10500 X68.233 Y90.507
G1 F1920 X43.218 Y65.492 E382.69007
G0 F10500 X42.989 Y65.970
G1 F1920 X67.526 Y90.507 E383.72357
G0 F10500 X66.819 Y90.507
G1 F1920 X42.989 Y66.678 E384.72727
G0 F10500 X42.989 Y67.385
G1 F1920 X66.112 Y90.507 E385.70119
G0 F10500 X65.405 Y90.507
G1 F1920 X42.989 Y68.092 E386.64534
G0 F10500 X42.989 Y68.799
G1 F1920 X64.698 Y90.507 E387.55970
G0 F10500 X63.991 Y90.507
G1 F1920 X42.989 Y69.506 E388.44428
G0 F10500 X42.989 Y70.213
G1 F1920 X63.283 Y90.507 E389.29907
G0 F10500 X62.576 Y90.507
G1 F1920 X42.989 Y70.920 E390.12407
G0 F10500 X42.989 Y71.627
G1 F1920 X61.869 Y90.507 E390.91930
G0 F10500 X61.162 Y90.507
G1 F1920 X42.989 Y72.334 E391.68475
G0 F10500 X42.989 Y73.042
G1 F1920 X60.455 Y90.507 E392.42040
G0 F10500 X59.748 Y90.507
G1 F1920 X42.989 Y73.749 E393.12627
G0 F10500 X42.989 Y74.456
G1 F1920 X59.041 Y90.507 E393.80236
G0 F10500 X58.334 Y90.507
G1 F1920 X42.989 Y75.163 E394.44867
G0 F10500 X42.989 Y75.870
G1 F1920 X57.627 Y90.507 E395.06520
G0 F10500 X56.919 Y90.507
G1 F1920 X42.989 Y76.577 E395.65193
G0 F10500 X42.989 Y77.284
G1 F1920 X56.212 Y90.507 E396.20889
G0 F10500 X55.505 Y90.507
G1 F1920 X42.989 Y77.991 E396.73606
G0 F10500 X42.989 Y78.698
G1 F1920 X54.798 Y90.507 E397.23346
G0 F10500 X54.091 Y90.507
G1 F1920 X42.989 Y79.405 E397.70107
G0 F10500 X42.989 Y80.113
G1 F1920 X53.384 Y90.507 E398.13889
G0 F10500 X52.677 Y90.507
G1 F1920 X42.989 Y80.820 E398.54693
G0 F10500 X42.989 Y81.527
G1 F1920 X51.970 Y90.507 E398.92519
G0 F10500 X51.263 Y90.507
G1 F1920 X42.989 Y82.234 E399.27367
G0 F10500 X42.989 Y82.941
G1 F1920 X50.556 Y90.507 E399.59237
G0 F10500 X49.848 Y90.507
G1 F1920 X42.989 Y83.648 E399.88127
G0 F10500 X42.989 Y84.355
G1 F1920 X49.141 Y90.507 E400.14039
G0 F10500 X48.434 Y90.507
G1 F1920 X42.989 Y85.062 E400.36974
G0 F10500 X42.989 Y85.769
G1 F1920 X47.727 Y90.507 E400.56930
G0 F10500 X47.020 Y90.507
G1 F1920 X42.989 Y86.477 E400.73907
G0 F10500 X42.989 Y87.184
G1 F1920 X46.313 Y90.507 E400.87905
G0 F10500 X45.606 Y90.507
G1 F1920 X42.989 Y87.891 E400.98926
G0 F10500 X42.989 Y88.598
G1 F1920 X44.899 Y90.507 E401.06969
G0 F10500 X44.192 Y90.507
G1 F1920 X42.989 Y89.305 E401.12034
G0 F10500 X42.989 Y90.012
G1 F1920 X43.484 Y90.507 E401.14119
;LAYER:3
G0 F10500 X42.815 Y90.683 Z1.565
;TYPE:WALL-INNER
G1 F1740 X42.815 Y65.317 E401.89667
G1 X117.185 Y65.317 E404.11166
G1 X117.185 Y90.683 E404.86715
G1 X42.815 Y90.683 E407.08214
G0 F10500 X43.749 Y89.750
G1 F1740 X67.249 Y89.750 E407.78205
G1 X67.249 Y66.250 E408.48196
G1 X43.749 Y66.250 E409.18187
G1 X43.749 Y89.750 E409.88178
G0 F10500 X68.212 Y89.750
G1 F1740 X91.711 Y89.750 E410.58166
G1 X91.711 Y66.251 E411.28154
G1 X68.212 Y66.251 E411.98142
G1 X68.212 Y89.750 E412.68129
G0 F10500 X92.751 Y89.750
G1 F1740 X116.251 Y89.750 E413.38120
G1 X116.251 Y66.251 E414.08108
G1 X92.751 Y66.251 E414.78099
G1 X92.751 Y89.750 E415.48087
G0 F10500 X93.251 Y89.250
;TYPE:WALL-OUTER
G1 F1500 X115.751 Y89.250 E416.15100
G1 X115.751 Y66.751 E416.82110
G1 X93.251 Y66.751 E417.49122
G1 X93.251 Y89.250 E418.16132
G0 F10500 X92.901 Y89.250
G0 X91.211 Y89.600
G0 X91.211 Y89.250
G1 F1500 X91.211 Y66.751 E418.83141
G1 X68.712 Y66.751 E419.50151
G1 X68.712 Y89.250 E420.17161
G1 X91.211 Y89.250 E420.84170
G0 F10500 X91.211 Y89.600
G0 X66.749 Y89.600
G0 X66.749 Y89.250
G1 F1500 X66.749 Y66.750 E421.51183
G1 X44.249 Y66.750 E422.18196
G1 X44.249 Y89.250 E422.85208
G1 X66.749 Y89.250 E423.52221
G0 F10500 X66.749 Y89.600
G0 X42.575 Y90.833
G0 X42.315 Y91.183
G1 F1500 X42.315 Y64.817 E424.30748
G1 X117.685 Y64.817 E426.55225
G1 X117.685 Y91.183 E427.33752
G1 X42.315 Y91.183 E429.58229
G0 F10500 X42.575 Y90.833
G0 X43.962 Y89.924
;TYPE:FILL
G1 F1980 X44.545 Y90.507 E429.60685
G0 F10500 X43.574 Y89.535
G1 F1980 X42.989 Y88.951 E429.63147
G0 F10500 X42.989 Y87.824
G1 F1980 X43.574 Y87.240 E429.65609
G0 F10500 X43.574 Y82.464
G1 F1980 X42.989 Y81.880 E429.68071
G0 F10500 X42.989 Y80.753
G1 F1980 X43.574 Y80.169 E429.70532
G0 F10500 X43.858 Y89.641
G0 X47.961 Y89.924
G1 F1980 X47.377 Y90.508 E429.72992
G0 F10500 X51.034 Y89.924
G1 F1980 X51.616 Y90.507 E429.75446
G0 F10500 X54.448 Y90.508
G1 F1980 X55.032 Y89.924 E429.77906
G0 F10500 X58.105 Y89.924
G1 F1980 X58.687 Y90.507 E429.80359
G0 F10500 X61.519 Y90.508
G1 F1980 X62.103 Y89.924 E429.82819
G0 F10500 X65.176 Y89.924
G1 F1980 X65.758 Y90.507 E429.85272
G0 F10500 X68.590 Y90.508
G1 F1980 X69.174 Y89.924 E429.87732
G0 F10500 X72.247 Y89.924
G1 F1980 X72.829 Y90.507 E429.90186
G0 F10500 X75.661 Y90.508
G1 F1980 X76.245 Y89.924 E429.92645
G0 F10500 X79.318 Y89.924
G1 F1980 X79.900 Y90.507 E429.95099
G0 F10500 X68.321 Y89.641
G0 X68.037 Y85.714
G1 F1980 X67.423 Y84.852 E429.97677
G1 X68.036 Y83.991 E430.00825
G0 F10500 X68.037 Y78.643
G1 F1980 X67.423 Y77.780 E430.03406
G1 X68.036 Y76.920 E430.06551
G0 F10500 X68.037 Y71.572
G1 F1980 X67.423 Y70.709 E430.09131
G1 X68.036 Y69.849 E430.12277
G0 F10500 X68.321 Y66.360
G0 X69.611 Y66.076
G1 F1980 X69.027 Y65.492 E430.14737
G0 F10500 X71.809 Y66.076
G1 F1980 X72.394 Y65.491 E430.17201
G0 F10500 X76.098 Y65.492
G1 F1980 X76.682 Y66.076 E430.19660
G0 F10500 X78.880 Y66.076
G1 F1980 X79.465 Y65.491 E430.22124
G0 F10500 X65.323 Y65.491
G1 F1980 X64.739 Y66.075 E430.24584
G0 F10500 X62.539 Y66.074
G1 F1980 X61.956 Y65.492 E430.27038
G0 F10500 X58.252 Y65.491
G1 F1980 X57.668 Y66.075 E430.29498
G0 F10500 X55.467 Y66.074
G1 F1980 X54.885 Y65.492 E430.31949
G0 F10500 X51.181 Y65.491
G1 F1980 X50.597 Y66.074 E430.34407
G0 F10500 X48.396 Y66.074
G1 F1980 X47.814 Y65.492 E430.36858
G0 F10500 X44.110 Y65.491
G1 F1980 X42.989 Y66.611 E430.41578
G0 F10500 X42.989 Y67.738
G1 F1980 X43.574 Y68.322 E430.44040
G0 F10500 X43.574 Y73.098
G1 F1980 X42.989 Y73.682 E430.46501
G0 F10500 X42.989 Y74.809
G1 F1980 X43.574 Y75.393 E430.48963
G0 F10500 X43.858 Y66.359
G0 X67.140 Y66.359
G0 X83.169 Y65.492
G1 F1980 X83.753 Y66.076 E430.51423
G0 F10500 X85.951 Y66.076
G1 F1980 X86.536 Y65.491 E430.53887
G0 F10500 X90.240 Y65.492
G1 F1980 X90.825 Y66.076 E430.56349
G0 F10500 X91.884 Y67.136
G1 F1980 X92.230 Y67.519 E430.59255
G1 X92.798 Y66.299 E430.62156
G1 X93.607 Y65.491 E430.65562
G0 F10500 X97.312 Y65.492
G1 F1980 X97.895 Y66.075 E430.68017
G0 F10500 X92.860 Y66.360
G0 X92.575 Y73.594
G1 F1980 X91.884 Y74.245 E430.70918
G1 X92.575 Y74.897 E430.73748
G0 F10500 X92.575 Y80.666
G1 F1980 X91.884 Y81.316 E430.76653
G1 X92.575 Y81.968 E430.79482
G0 F10500 X92.575 Y87.737
G1 F1980 X91.884 Y88.387 E430.82387
G1 X92.575 Y89.039 E430.85216
G0 F10500 X93.460 Y89.924
G1 F1980 X94.043 Y90.507 E430.87672
G0 F10500 X96.875 Y90.508
G1 F1980 X97.458 Y89.924 E430.90130
G0 F10500 X90.387 Y89.924
G1 F1980 X89.803 Y90.508 E430.92589
G0 F10500 X86.972 Y90.507
G1 F1980 X86.389 Y89.924 E430.95045
G0 F10500 X83.316 Y89.924
G1 F1980 X82.732 Y90.508 E430.97505
G0 F10500 X100.531 Y89.924
G1 F1980 X101.114 Y90.507 E430.99960
G0 F10500 X103.946 Y90.508
G1 F1980 X104.529 Y89.924 E431.02418
G0 F10500 X107.602 Y89.924
G1 F1980 X108.185 Y90.507 E431.04874
G0 F10500 X111.017 Y90.508
G1 F1980 X111.600 Y89.924 E431.07331
G0 F10500 X114.673 Y89.924
G1 F1980 X115.256 Y90.507 E431.09787
G0 F10500 X116.142 Y89.641
G0 X116.425 Y85.099
G1 F1980 X116.717 Y84.560 E431.12241
G1 X117.009 Y85.189 E431.14306
G0 F10500 X117.009 Y78.118
G1 F1980 X116.425 Y77.781 E431.16764
G1 X117.009 Y77.445 E431.18771
G0 F10500 X117.009 Y71.047
G1 F1980 X116.425 Y70.710 E431.21229
G1 X117.009 Y70.374 E431.23236
G0 F10500 X116.142 Y66.360
G0 X114.235 Y66.076
G1 F1980 X114.820 Y65.491 E431.25700
G0 F10500 X112.037 Y66.075
G1 F1980 X111.454 Y65.492 E431.28155
G0 F10500 X107.749 Y65.491
G1 F1980 X107.164 Y66.076 E431.30619
G0 F10500 X104.966 Y66.075
G1 F1980 X104.383 Y65.492 E431.33075
G0 F10500 X100.678 Y65.491
G1 F1980 X100.093 Y66.076 E431.35539
;LAYER:4
G0 F10500 X92.751 Y66.251 Z1.945
;TYPE:WALL-INNER
G1 F2100 X92.751 Y89.750 E432.05527
G1 X116.251 Y89.750 E432.75518
G1 X116.251 Y66.251 E433.45506
G1 X92.751 Y66.251 E434.15497
G0 F10500 X91.711 Y66.251
G1 F2100 X68.212 Y66.251 E434.85485
G1 X68.212 Y89.750 E435.55473
G1 X91.711 Y89.750 E436.25461
G1 X91.711 Y66.251 E436.95449
G0 F10500 X67.249 Y66.250
G1 F2100 X43.749 Y66.250 E437.65439
G1 X43.749 Y89.750 E438.35430
G1 X67.249 Y89.750 E439.05421
G1 X67.249 Y66.250 E439.75412
G0 F10500 X42.815 Y65.317
G1 F2100 X117.185 Y65.317 E441.96911
G1 X117.185 Y90.683 E442.72460
G1 X42.815 Y90.683 E444.93959
G1 X42.815 Y65.317 E445.69507
G0 F10500 X42.315 Y64.817
;TYPE:WALL-OUTER
G1 F1800 X117.685 Y64.817 E447.93985
G1 X117.685 Y91.183 E448.72512
G1 X42.315 Y91.183 E450.96989
G1 X42.315 Y64.817 E451.75516
G0 F10500 X42.665 Y65.077
G0 X44.249 Y66.400
G0 X44.249 Y66.750
G1 F1800 X44.249 Y89.250 E452.42528
G1 X66.749 Y89.250 E453.09541
G1 X66.749 Y66.750 E453.76554
G1 X44.249 Y66.750 E454.43566
G0 F10500 X44.249 Y66.400
G0 X68.712 Y66.401
G0 X68.712 Y66.751
G1 F1800 X68.712 Y89.250 E455.10576
G1 X91.211 Y89.250 E455.77585
G1 X91.211 Y66.751 E456.44595
G1 X68.712 Y66.751 E457.11605
G0 F10500 X68.712 Y66.401
G0 X93.251 Y66.401
G0 X93.251 Y66.751
G1 F1800 X93.251 Y89.250 E457.78614
G1 X115.751 Y89.250 E458.45627
G1 X115.751 Y66.751 E459.12637
G1 X93.251 Y66.751 E459.79649
G0 F10500 X93.022 Y66.076
;TYPE:FILL
G1 F2400 X93.607 Y65.491 E459.82113
G0 F10500 X92.575 Y66.523
G1 F2400 X91.884 Y67.174 E459.85014
G1 X92.575 Y67.826 E459.87844
G0 F10500 X91.602 Y66.360
G0 X90.825 Y66.076
G1 F2400 X90.240 Y65.492 E459.90306
G0 F10500 X86.536 Y65.491
G1 F2400 X85.951 Y66.076 E459.92770
G0 F10500 X83.753 Y66.076
G1 F2400 X83.169 Y65.492 E459.95230
G0 F10500 X91.602 Y66.360
G0 X91.884 Y74.207
G1 F2400 X92.230 Y74.590 E459.98135
G1 X92.575 Y73.594 E460.01274
G0 F10500 X92.860 Y66.360
G0 X97.895 Y66.075
G1 F2400 X97.312 Y65.492 E460.03730
G0 F10500 X100.093 Y66.076
G1 F2400 X100.678 Y65.491 E460.06194
G0 F10500 X104.383 Y65.492
G1 F2400 X104.966 Y66.075 E460.08650
G0 F10500 X107.164 Y66.076
G1 F2400 X107.749 Y65.491 E460.11114
G0 F10500 X111.454 Y65.492
G1 F2400 X112.037 Y66.075 E460.13569
G0 F10500 X114.235 Y66.076
G1 F2400 X114.820 Y65.491 E460.16033
G0 F10500 X116.142 Y66.360
G0 X116.425 Y70.463
G1 F2400 X116.717 Y71.002 E460.18487
G1 X117.009 Y70.374 E460.20550
G0 F10500 X117.009 Y77.445
G1 F2400 X116.425 Y77.781 E460.23006
G1 X117.009 Y78.118 E460.25014
G0 F10500 X117.009 Y84.516
G1 F2400 X116.425 Y84.852 E460.27470
G1 X117.009 Y85.189 E460.29478
G0 F10500 X116.142 Y89.641
G0 X114.673 Y89.924
G1 F2400 X115.256 Y90.507 E460.31934
G0 F10500 X111.600 Y89.924
G1 F2400 X111.017 Y90.508 E460.34392
G0 F10500 X108.185 Y90.507
G1 F2400 X107.602 Y89.924 E460.36847
G0 F10500 X104.529 Y89.924
G1 F2400 X103.946 Y90.508 E460.39305
G0 F10500 X101.114 Y90.507
G1 F2400 X100.531 Y89.924 E460.41761
G0 F10500 X97.458 Y89.924
G1 F2400 X96.875 Y90.508 E460.44218
G0 F10500 X94.043 Y90.507
G1 F2400 X93.460 Y89.924 E460.46674
G0 F10500 X92.575 Y89.039
G1 F2400 X91.884 Y88.387 E460.49577
G1 X92.575 Y87.737 E460.52403
G0 F10500 X91.602 Y89.641
G0 X90.387 Y89.924
G1 F2400 X89.803 Y90.508 E460.54862
G0 F10500 X86.972 Y90.507
G1 F2400 X86.389 Y89.924 E460.57318
G0 F10500 X83.316 Y89.924
G1 F2400 X82.732 Y90.508 E460.59778
G0 F10500 X91.602 Y89.641
G0 X91.885 Y81.355
G1 F2400 X92.229 Y80.972 E460.62685
G1 X92.575 Y81.968 E460.65825
G0 F10500 X91.602 Y89.641
G0 X79.900 Y90.507
G1 F2400 X79.318 Y89.924 E460.68279
G0 F10500 X76.245 Y89.924
G1 F2400 X75.661 Y90.508 E460.70738
G0 F10500 X72.829 Y90.507
G1 F2400 X72.247 Y89.924 E460.73192
G0 F10500 X69.174 Y89.924
G1 F2400 X68.590 Y90.508 E460.75652
G0 F10500 X65.758 Y90.507
G1 F2400 X65.176 Y89.924 E460.78105
G0 F10500 X62.103 Y89.924
G1 F2400 X61.519 Y90.508 E460.80565
G0 F10500 X67.140 Y89.641
G0 X67.423 Y85.101
G1 F2400 X68.037 Y85.714 E460.83149
G0 F10500 X67.424 Y84.603
G1 F2400 X68.036 Y83.991 E460.85727
G0 F10500 X68.037 Y78.643
G1 F2400 X67.423 Y77.780 E460.88307
G1 X68.036 Y76.920 E460.91453
G0 F10500 X68.037 Y71.572
G1 F2400 X67.423 Y70.709 E460.94033
G1 X68.036 Y69.849 E460.97178
G0 F10500 X68.321 Y66.360
G0 X69.611 Y66.076
G1 F2400 X69.027 Y65.492 E460.99638
G0 F10500 X71.809 Y66.076
G1 F2400 X72.394 Y65.491 E461.02102
G0 F10500 X76.098 Y65.492
G1 F2400 X76.682 Y66.076 E461.04562
G0 F10500 X78.880 Y66.076
G1 F2400 X79.465 Y65.491 E461.07026
G0 F10500 X65.323 Y65.491
G1 F2400 X64.739 Y66.075 E461.09486
G0 F10500 X62.539 Y66.074
G1 F2400 X61.956 Y65.492 E461.11939
G0 F10500 X58.252 Y65.491
G1 F2400 X57.668 Y66.075 E461.14399
G0 F10500 X55.467 Y66.074
G1 F2400 X54.885 Y65.492 E461.16851
G0 F10500 X51.181 Y65.491
G1 F2400 X50.597 Y66.074 E461.19308
G0 F10500 X48.396 Y66.074
G1 F2400 X47.814 Y65.492 E461.21760
G0 F10500 X44.110 Y65.491
G1 F2400 X42.989 Y66.611 E461.26479
G0 F10500 X42.989 Y67.738
G1 F2400 X43.574 Y68.322 E461.28941
G0 F10500 X43.574 Y73.098
G1 F2400 X42.989 Y73.682 E461.31403
G0 F10500 X42.989 Y74.809
G1 F2400 X43.574 Y75.393 E461.33865
G0 F10500 X43.574 Y80.169
G1 F2400 X42.989 Y80.753 E461.36327
G0 F10500 X42.989 Y81.880
G1 F2400 X43.574 Y82.464 E461.38789
G0 F10500 X43.574 Y87.240
G1 F2400 X42.989 Y87.824 E461.41251
G0 F10500 X42.989 Y88.951
G1 F2400 X43.768 Y89.729 E461.43710
G1 X44.545 Y90.507 E461.46985
G0 F10500 X47.377 Y90.508
G1 F2400 X47.961 Y89.924 E461.49445
G0 F10500 X51.034 Y89.924
G1 F2400 X51.616 Y90.507 E461.51898
G0 F10500 X54.448 Y90.508
G1 F2400 X55.032 Y89.924 E461.54358
G0 F10500 X58.105 Y89.924
G1 F2400 X58.687 Y90.507 E461.56812
G0 F10500 X56.784 Y90.372
;TYPE:SKIN
G1 F3000 X56.274 Y90.215 E461.58696
G1 X55.567 Y90.215 E461.61147
G1 X54.664 Y90.019 E461.63597
G1 X54.797 Y90.506 E461.65100
G0 F10500 X50.154 Y90.105
G1 F3000 X49.910 Y90.215 E461.65864
G1 X49.203 Y90.215 E461.68315
G1 X48.496 Y90.215 E461.70766
G1 X47.851 Y89.924 E461.72874
G0 F10500 X60.881 Y90.226
G1 F3000 X61.223 Y90.215 E461.74050
G1 X61.931 Y90.215 E461.76500
G1 X62.638 Y90.215 E461.78951
G1 X63.261 Y90.484 E461.80972
G0 F10500 X75.428 Y89.924
G1 F3000 X76.073 Y90.215 E461.83425
G1 X76.780 Y90.215 E461.85876
G1 X77.535 Y90.263 E461.88328
G1 X77.549 Y89.924 E461.89338
G0 F10500 X82.583 Y90.007
G1 F3000 X83.144 Y90.215 E461.91437
G1 X83.851 Y90.215 E461.93888
G1 X84.729 Y90.385 E461.96339
G1 X84.620 Y89.924 E461.97750
G0 F10500 X103.713 Y89.924
G1 F3000 X104.358 Y90.215 E462.00203
G1 X105.065 Y90.215 E462.02654
G1 X105.844 Y90.288 E462.05105
G1 X105.834 Y89.924 E462.06190
G0 F10500 X92.860 Y89.641
G0 X92.860 Y66.360
G0 X105.320 Y66.075
G1 F3000 X104.674 Y65.783 E462.08647
G1 X103.815 Y65.631 E462.11100
G1 X103.905 Y66.075 E462.12449
G0 F10500 X105.443 Y65.492
G1 F3000 X105.979 Y66.028 E462.14707
G0 F10500 X84.813 Y66.075
G1 F3000 X84.168 Y65.783 E462.17157
G1 X83.461 Y65.783 E462.19608
G1 X82.699 Y65.728 E462.22061
G1 X82.692 Y66.075 E462.23095
G0 F10500 X77.645 Y65.978
G1 F3000 X77.097 Y65.783 E462.25143
G1 X76.390 Y65.783 E462.27594
G1 X75.505 Y65.606 E462.30045
G1 X75.621 Y66.075 E462.31484
G0 F10500 X63.261 Y65.736
G1 F3000 X62.954 Y65.782 E462.32516
G1 X62.247 Y65.782 E462.34967
G1 X61.539 Y65.782 E462.37417
G1 X60.895 Y65.491 E462.39522
G0 F10500 X56.784 Y65.623
G1 F3000 X56.589 Y65.782 E462.40082
G1 X55.882 Y65.782 E462.42538
G1 X55.175 Y65.782 E462.44993
G1 X54.530 Y65.490 E462.47102
G0 F10500 X50.154 Y66.064
G1 F3000 X49.519 Y65.782 E462.49515
G1 X48.812 Y65.782 E462.51966
G1 X47.971 Y65.648 E462.54421
G1 X48.042 Y66.074 E462.55707
;LAYER:5
G0 F10500 X43.749 Y66.250 Z2.325
;TYPE:WALL-INNER
G1 F2100 X43.749 Y89.750 E463.25698
G1 X67.249 Y89.750 E463.95689
G1 X67.249 Y66.250 E464.65680
G1 X43.749 Y66.250 E465.35671
G0 F10500 X42.815 Y65.317
G1 F2100 X117.185 Y65.317 E467.57170
G1 X117.185 Y90.683 E468.32718
G1 X42.815 Y90.683 E470.54217
G1 X42.815 Y65.317 E471.29766
G0 F10500 X68.212 Y66.251
G1 F2100 X68.212 Y89.750 E471.99754
G1 X91.711 Y89.750 E472.69742
G1 X91.711 Y66.251 E473.39730
G1 X68.212 Y66.251 E474.09718
G0 F10500 X92.751 Y66.251
G1 F2100 X92.751 Y89.750 E474.79706
G1 X116.251 Y89.750 E475.49697
G1 X116.251 Y66.251 E476.19685
G1 X92.751 Y66.251 E476.89676
G0 F10500 X93.251 Y66.751
;TYPE:WALL-OUTER
G1 F1800 X93.251 Y89.250 E477.56685
G1 X115.751 Y89.250 E478.23698
G1 X115.751 Y66.751 E478.90707
G1 X93.251 Y66.751 E479.57720
G0 F10500 X93.251 Y66.401
G0 X91.211 Y66.401
G0 X91.211 Y66.751
G1 F1800 X68.712 Y66.751 E480.24730
G1 X68.712 Y89.250 E480.91739
G1 X91.211 Y89.250 E481.58749
G1 X91.211 Y66.751 E482.25759
G0 F10500 X91.211 Y66.401
G0 X66.749 Y66.400
G0 X66.749 Y66.750
G1 F1800 X44.249 Y66.750 E482.92771
G1 X44.249 Y89.250 E483.59784
G1 X66.749 Y89.250 E484.26796
G1 X66.749 Y66.750 E484.93809
G0 F10500 X66.749 Y66.400
G0 X42.665 Y65.077
G0 X42.315 Y64.817
G1 F1800 X117.685 Y64.817 E487.18286
G1 X117.685 Y91.183 E487.96813
G1 X42.315 Y91.183 E490.21291
G1 X42.315 Y64.817 E490.99817
G0 F10500 X42.665 Y65.077
G0 X42.989 Y66.611
;TYPE:FILL
G1 F2400 X44.110 Y65.491 E491.04537
G0 F10500 X42.989 Y67.738
G1 F2400 X43.574 Y68.322 E491.06999
G0 F10500 X43.574 Y73.098
G1 F2400 X42.989 Y73.682 E491.09461
G0 F10500 X42.989 Y74.809
G1 F2400 X43.574 Y75.393 E491.11923
G0 F10500 X43.858 Y66.359
G0 X48.396 Y66.074
G1 F2400 X47.814 Y65.492 E491.14374
G0 F10500 X50.597 Y66.074
G1 F2400 X51.181 Y65.491 E491.16832
G0 F10500 X54.885 Y65.492
G1 F2400 X55.467 Y66.074 E491.19283
G0 F10500 X57.668 Y66.075
G1 F2400 X58.252 Y65.491 E491.21743
G0 F10500 X61.956 Y65.492
G1 F2400 X62.539 Y66.074 E491.24196
G0 F10500 X64.739 Y66.075
G1 F2400 X65.323 Y65.491 E491.26656
G0 F10500 X69.027 Y65.492
G1 F2400 X69.611 Y66.076 E491.29116
G0 F10500 X71.809 Y66.076
G1 F2400 X72.394 Y65.491 E491.31580
G0 F10500 X76.098 Y65.492
G1 F2400 X76.682 Y66.076 E491.34040
G0 F10500 X78.880 Y66.076
G1 F2400 X79.465 Y65.491 E491.36504
G0 F10500 X68.321 Y66.360
G0 X68.036 Y69.849
G1 F2400 X67.423 Y70.709 E491.39077
G1 X68.037 Y71.572 E491.42231
G0 F10500 X68.036 Y76.920
G1 F2400 X67.423 Y77.780 E491.44804
G1 X68.037 Y78.643 E491.47959
G0 F10500 X68.036 Y83.991
G1 F2400 X67.423 Y84.852 E491.50534
G1 X68.037 Y85.714 E491.53686
G0 F10500 X68.321 Y89.641
G0 X69.174 Y89.924
G1 F2400 X68.590 Y90.508 E491.56146
G0 F10500 X65.758 Y90.507
G1 F2400 X65.176 Y89.924 E491.58599
G0 F10500 X62.103 Y89.924
G1 F2400 X61.519 Y90.508 E491.61059
G0 F10500 X72.247 Y89.924
G1 F2400 X72.829 Y90.507 E491.63512
G0 F10500 X75.661 Y90.508
G1 F2400 X76.245 Y89.924 E491.65972
G0 F10500 X79.318 Y89.924
G1 F2400 X79.900 Y90.507 E491.68426
G0 F10500 X82.732 Y90.508
G1 F2400 X83.316 Y89.924 E491.70886
G0 F10500 X86.389 Y89.924
G1 F2400 X86.972 Y90.507 E491.73341
G0 F10500 X89.803 Y90.508
G1 F2400 X90.387 Y89.924 E491.75801
G0 F10500 X91.602 Y89.641
G0 X91.885 Y88.426
G1 F2400 X92.229 Y88.043 E491.78708
G1 X92.575 Y89.039 E491.81848
G0 F10500 X93.460 Y89.924
G1 F2400 X94.043 Y90.507 E491.84304
G0 F10500 X96.875 Y90.508
G1 F2400 X97.458 Y89.924 E491.86762
G0 F10500 X92.860 Y89.641
G0 X92.575 Y81.968
G1 F2400 X91.884 Y81.316 E491.89665
G1 X92.575 Y80.666 E491.92490
G0 F10500 X92.575 Y74.897
G1 F2400 X91.884 Y74.245 E491.95393
G1 X92.575 Y73.594 E491.98221
G0 F10500 X92.575 Y67.826
G1 F2400 X91.884 Y67.174 E492.01124
G1 X92.798 Y66.299 E492.04026
G1 X93.607 Y65.491 E492.07431
G0 F10500 X90.825 Y66.076
G1 F2400 X90.240 Y65.492 E492.09893
G0 F10500 X86.536 Y65.491
G1 F2400 X85.951 Y66.076 E492.12357
G0 F10500 X83.753 Y66.076
G1 F2400 X83.169 Y65.492 E492.14817
G0 F10500 X97.312 Y65.492
G1 F2400 X97.895 Y66.075 E492.17273
G0 F10500 X100.093 Y66.076
G1 F2400 X100.678 Y65.491 E492.19737
G0 F10500 X104.383 Y65.492
G1 F2400 X104.966 Y66.075 E492.22192
G0 F10500 X107.164 Y66.076
G1 F2400 X107.749 Y65.491 E492.24656
G0 F10500 X111.454 Y65.492
G1 F2400 X112.037 Y66.075 E492.27112
G0 F10500 X114.235 Y66.076
G1 F2400 X114.820 Y65.491 E492.29576
G0 F10500 X116.142 Y66.360
G0 X116.425 Y70.463
G1 F2400 X116.717 Y71.002 E492.32030
G1 X117.009 Y70.374 E492.34092
G0 F10500 X117.009 Y77.445
G1 F2400 X116.425 Y77.781 E492.36549
G1 X117.009 Y78.118 E492.38557
G0 F10500 X117.009 Y84.516
G1 F2400 X116.425 Y84.852 E492.41013
G1 X117.009 Y85.189 E492.43021
G0 F10500 X116.142 Y89.641
G0 X114.673 Y89.924
G1 F2400 X115.256 Y90.507 E492.45477
G0 F10500 X111.600 Y89.924
G1 F2400 X111.017 Y90.508 E492.47934
G0 F10500 X108.185 Y90.507
G1 F2400 X107.602 Y89.924 E492.50390
G0 F10500 X104.529 Y89.924
G1 F2400 X103.946 Y90.508 E492.52848
G0 F10500 X101.114 Y90.507
G1 F2400 X100.531 Y89.924 E492.55303
G0 F10500 X58.687 Y90.507
G1 F2400 X58.105 Y89.924 E492.57757
G0 F10500 X55.032 Y89.924
G1 F2400 X54.448 Y90.508 E492.60217
G0 F10500 X51.616 Y90.507
G1 F2400 X51.034 Y89.924 E492.62670
G0 F10500 X47.961 Y89.924
G1 F2400 X47.377 Y90.508 E492.65130
G0 F10500 X44.545 Y90.507
G1 F2400 X43.768 Y89.729 E492.67579
G1 X42.989 Y88.951 E492.70859
G0 F10500 X42.989 Y87.824
G1 F2400 X43.574 Y87.240 E492.73320
G0 F10500 X43.574 Y82.464
G1 F2400 X42.989 Y81.880 E492.75782
G0 F10500 X42.989 Y80.753
G1 F2400 X43.574 Y80.169 E492.78244
G0 F10500 X43.858 Y89.641
G0 X47.608 Y89.924
;TYPE:SKIN
G1 F3000 X47.563 Y90.321 E492.79137
G1 X48.377 Y90.215 E492.81586
G1 X49.084 Y90.215 E492.84037
G1 X49.791 Y90.215 E492.86488
G1 X50.436 Y89.924 E492.88596
G0 F10500 X54.096 Y90.506
G1 F3000 X54.741 Y90.215 E492.91049
G1 X55.448 Y90.215 E492.93500
G1 X56.155 Y90.215 E492.95951
G1 X56.981 Y90.095 E492.98402
G1 X56.924 Y90.506 E492.99638
G0 F10500 X60.502 Y90.465
G1 F3000 X61.104 Y90.215 E493.01917
G1 X61.811 Y90.215 E493.04373
G1 X62.519 Y90.215 E493.06827
G1 X63.402 Y90.039 E493.09278
G1 X63.288 Y90.507 E493.10713
G0 F10500 X74.886 Y90.222
G1 F3000 X75.246 Y90.215 E493.11969
G1 X75.954 Y90.215 E493.14424
G1 X76.661 Y90.215 E493.16875
G1 X77.368 Y90.215 E493.19326
G1 X78.013 Y89.924 E493.21433
G0 F10500 X82.380 Y90.507
G1 F3000 X83.025 Y90.215 E493.23884
G1 X83.732 Y90.215 E493.26335
G1 X84.439 Y90.215 E493.28786
G1 X85.213 Y90.148 E493.31239
G1 X85.208 Y90.507 E493.32308
G0 F10500 X103.221 Y90.172
G1 F3000 X103.530 Y90.215 E493.33352
G1 X104.237 Y90.215 E493.35803
G1 X104.945 Y90.215 E493.38254
G1 X105.652 Y90.215 E493.40705
G1 X106.297 Y89.924 E493.42812
G0 F10500 X92.860 Y89.641
G0 X92.860 Y66.360
G0 X106.104 Y66.075
G1 F3000 X106.170 Y65.656 E493.43881
G1 X105.335 Y65.783 E493.46336
G1 X104.628 Y65.783 E493.48791
G1 X103.921 Y65.783 E493.51246
G1 X103.276 Y66.075 E493.53355
G0 F10500 X85.341 Y65.625
G1 F3000 X84.829 Y65.783 E493.55254
G1 X84.122 Y65.783 E493.57714
G1 X83.415 Y65.783 E493.60173
G1 X82.486 Y66.005 E493.62631
G1 X82.647 Y65.491 E493.64235
G0 F10500 X78.024 Y65.871
G1 F3000 X77.757 Y65.784 E493.65098
G1 X77.050 Y65.784 E493.67554
G1 X76.343 Y65.784 E493.70009
G1 X75.636 Y65.784 E493.72464
G1 X74.991 Y66.076 E493.74573
G0 F10500 X63.556 Y65.490
G1 F3000 X62.910 Y65.782 E493.77030
G1 X62.202 Y65.782 E493.79489
G1 X61.495 Y65.782 E493.81944
G1 X60.676 Y65.895 E493.84402
G1 X60.727 Y65.490 E493.85618
G0 F10500 X57.163 Y65.519
G1 F3000 X56.546 Y65.782 E493.87955
G1 X55.839 Y65.782 E493.90410
G1 X55.131 Y65.782 E493.92864
G1 X54.256 Y65.951 E493.95317
G1 X54.363 Y65.490 E493.96726
G0 F10500 X50.534 Y65.784
G1 F3000 X50.182 Y65.782 E493.97947
G1 X49.475 Y65.782 E494.00402
G1 X48.767 Y65.782 E494.02861
G1 X48.060 Y65.782 E494.05316
G1 X47.415 Y66.074 E494.07425
;LAYER:6
G0 F10500 X43.749 Y66.250 Z2.705
;TYPE:WALL-INNER
G1 F2100 X43.749 Y89.750 E494.77416
G1 X67.249 Y89.750 E495.47407
G1 X67.249 Y66.250 E496.17398
G1 X43.749 Y66.250 E496.87388
G0 F10500 X42.815 Y65.317
G1 F2100 X117.185 Y65.317 E499.08887
G1 X117.185 Y90.683 E499.84436
G1 X42.815 Y90.683 E502.05935
G1 X42.815 Y65.317 E502.81484
G0 F10500 X68.212 Y66.251
G1 F2100 X68.212 Y89.750 E503.51471
G1 X91.711 Y89.750 E504.21459
G1 X91.711 Y66.251 E504.91447
G1 X68.212 Y66.251 E505.61435
G0 F10500 X92.751 Y66.251
G1 F2100 X92.751 Y89.750 E506.31423
G1 X116.251 Y89.750 E507.01414
G1 X116.251 Y66.251 E507.71402
G1 X92.751 Y66.251 E508.41393
G0 F10500 X93.251 Y66.751
;TYPE:WALL-OUTER
G1 F1800 X93.251 Y89.250 E509.08403
G1 X115.751 Y89.250 E509.75415
G1 X115.751 Y66.751 E510.42425
G1 X93.251 Y66.751 E511.09438
G0 F10500 X93.251 Y66.401
G0 X91.211 Y66.401
G0 X91.211 Y66.751
G1 F1800 X68.712 Y66.751 E511.76447
G1 X68.712 Y89.250 E512.43457
G1 X91.211 Y89.250 E513.10467
G1 X91.211 Y66.751 E513.77476
G0 F10500 X91.211 Y66.401
G0 X66.749 Y66.400
G0 X66.749 Y66.750
G1 F1800 X44.249 Y66.750 E514.44489
G1 X44.249 Y89.250 E515.11501
G1 X66.749 Y89.250 E515.78514
G1 X66.749 Y66.750 E516.45527
G0 F10500 X66.749 Y66.400
G0 X42.665 Y65.077
G0 X42.315 Y64.817
G1 F1800 X117.685 Y64.817 E518.70004
G1 X117.685 Y91.183 E519.48531
G1 X42.315 Y91.183 E521.73008
G1 X42.315 Y64.817 E522.51535
G0 F10500 X42.665 Y65.077
G0 X42.989 Y66.611
;TYPE:FILL
G1 F2400 X44.110 Y65.491 E522.56255
G0 F10500 X42.989 Y67.738
G1 F2400 X43.574 Y68.322 E522.58717
G0 F10500 X43.574 Y73.098
G1 F2400 X42.989 Y73.682 E522.61178
G0 F10500 X42.989 Y74.809
G1 F2400 X43.574 Y75.393 E522.63640
G0 F10500 X43.858 Y66.359
G0 X48.396 Y66.074
G1 F2400 X47.814 Y65.492 E522.66092
G0 F10500 X50.597 Y66.074
G1 F2400 X51.181 Y65.491 E522.68549
G0 F10500 X54.885 Y65.492
G1 F2400 X55.467 Y66.074 E522.71001
G0 F10500 X57.668 Y66.075
G1 F2400 X58.252 Y65.491 E522.73461
G0 F10500 X61.956 Y65.492
G1 F2400 X62.539 Y66.074 E522.75914
G0 F10500 X64.739 Y66.075
G1 F2400 X65.323 Y65.491 E522.78374
G0 F10500 X69.027 Y65.492
G1 F2400 X69.611 Y66.076 E522.80834
G0 F10500 X71.809 Y66.076
G1 F2400 X72.394 Y65.491 E522.83298
G0 F10500 X76.098 Y65.492
G1 F2400 X76.682 Y66.076 E522.85758
G0 F10500 X78.880 Y66.076
G1 F2400 X79.465 Y65.491 E522.88222
G0 F10500 X68.321 Y66.360
G0 X68.036 Y69.849
G1 F2400 X67.423 Y70.709 E522.90795
G1 X68.037 Y71.572 E522.93949
G0 F10500 X68.036 Y76.920
G1 F2400 X67.423 Y77.780 E522.96522
G1 X68.037 Y78.643 E522.99677
G0 F10500 X68.036 Y83.991
G1 F2400 X67.423 Y84.852 E523.02251
G1 X68.037 Y85.714 E523.05404
G0 F10500 X68.321 Y89.641
G0 X69.174 Y89.924
G1 F2400 X68.590 Y90.508 E523.07863
G0 F10500 X65.758 Y90.507
G1 F2400 X65.176 Y89.924 E523.10317
G0 F10500 X62.103 Y89.924
G1 F2400 X61.519 Y90.508 E523.12777
G0 F10500 X72.247 Y89.924
G1 F2400 X72.829 Y90.507 E523.15230
G0 F10500 X75.661 Y90.508
G1 F2400 X76.245 Y89.924 E523.17690
G0 F10500 X79.318 Y89.924
G1 F2400 X79.900 Y90.507 E523.20143
G0 F10500 X82.732 Y90.508
G1 F2400 X83.316 Y89.924 E523.22603
G0 F10500 X86.389 Y89.924
G1 F2400 X86.972 Y90.507 E523.25059
G0 F10500 X89.803 Y90.508
G1 F2400 X90.387 Y89.924 E523.27519
G0 F10500 X91.602 Y89.641
G0 X91.885 Y88.426
G1 F2400 X92.229 Y88.043 E523.30426
G1 X92.575 Y89.039 E523.33566
G0 F10500 X93.460 Y89.924
G1 F2400 X94.043 Y90.507 E523.36022
G0 F10500 X96.875 Y90.508
G1 F2400 X97.458 Y89.924 E523.38479
G0 F10500 X92.860 Y89.641
G0 X92.575 Y81.968
G1 F2400 X91.884 Y81.316 E523.41382
G1 X92.575 Y80.666 E523.44208
G0 F10500 X92.575 Y74.897
G1 F2400 X91.884 Y74.245 E523.47111
G1 X92.575 Y73.594 E523.49939
G0 F10500 X92.575 Y67.826
G1 F2400 X91.884 Y67.174 E523.52842
G1 X92.798 Y66.299 E523.55743
G1 X93.607 Y65.491 E523.59149
G0 F10500 X90.825 Y66.076
G1 F2400 X90.240 Y65.492 E523.61611
G0 F10500 X86.536 Y65.491
G1 F2400 X85.951 Y66.076 E523.64075
G0 F10500 X83.753 Y66.076
G1 F2400 X83.169 Y65.492 E523.66535
G0 F10500 X97.312 Y65.492
G1 F2400 X97.895 Y66.075 E523.68990
G0 F10500 X100.093 Y66.076
G1 F2400 X100.678 Y65.491 E523.71454
G0 F10500 X104.383 Y65.492
G1 F2400 X104.966 Y66.075 E523.73910
G0 F10500 X107.164 Y66.076
G1 F2400 X107.749 Y65.491 E523.76374
G0 F10500 X111.454 Y65.492
G1 F2400 X112.037 Y66.075 E523.78829
G0 F10500 X114.235 Y66.076
G1 F2400 X114.820 Y65.491 E523.81294
G0 F10500 X116.142 Y66.360
G0 X116.425 Y70.463
G1 F2400 X116.717 Y71.002 E523.83747
G1 X117.009 Y70.374 E523.85810
G0 F10500 X117.009 Y77.445
G1 F2400 X116.425 Y77.781 E523.88266
G1 X117.009 Y78.118 E523.90274
G0 F10500 X117.009 Y84.516
G1 F2400 X116.425 Y84.852 E523.92731
G1 X117.009 Y85.189 E523.94739
G0 F10500 X116.142 Y89.641
G0 X114.673 Y89.924
G1 F2400 X115.256 Y90.507 E523.97194
G0 F10500 X111.600 Y89.924
G1 F2400 X111.017 Y90.508 E523.99652
G0 F10500 X108.185 Y90.507
G1 F2400 X107.602 Y89.924 E524.02108
G0 F10500 X104.529 Y89.924
G1 F2400 X103.946 Y90.508 E524.04565
G0 F10500 X101.114 Y90.507
G1 F2400 X100.531 Y89.924 E524.07021
G0 F10500 X58.687 Y90.507
G1 F2400 X58.105 Y89.924 E524.09474
G0 F10500 X55.032 Y89.924
G1 F2400 X54.448 Y90.508 E524.11934
G0 F10500 X51.616 Y90.507
G1 F2400 X51.034 Y89.924 E524.14388
G0 F10500 X47.961 Y89.924
G1 F2400 X47.377 Y90.508 E524.16848
G0 F10500 X44.545 Y90.507
G1 F2400 X43.768 Y89.729 E524.19297
G1 X42.989 Y88.951 E524.22576
G0 F10500 X42.989 Y87.824
G1 F2400 X43.574 Y87.240 E524.25038
G0 F10500 X43.574 Y82.464
G1 F2400 X42.989 Y81.880 E524.27500
G0 F10500 X42.989 Y80.753
G1 F2400 X43.574 Y80.169 E524.29962
G0 F10500 X43.858 Y89.641
G0 X47.144 Y89.924
;TYPE:SKIN
G1 F3000 X47.789 Y90.215 E524.32415
G1 X48.496 Y90.215 E524.34866
G1 X49.203 Y90.215 E524.37317
G1 X49.910 Y90.215 E524.39768
G1 X50.735 Y90.332 E524.42225
G1 X50.679 Y89.924 E524.43452
G0 F10500 X53.646 Y90.062
G1 F3000 X54.153 Y90.215 E524.45325
G1 X54.860 Y90.215 E524.47776
G1 X55.567 Y90.215 E524.50227
G1 X56.274 Y90.215 E524.52678
G1 X56.981 Y90.215 E524.55129
G1 X57.545 Y90.425 E524.56922
G0 F10500 X60.121 Y90.173
G1 F3000 X60.517 Y90.215 E524.58326
G1 X61.224 Y90.215 E524.60777
G1 X61.931 Y90.215 E524.63228
G1 X62.638 Y90.215 E524.65679
G1 X63.345 Y90.215 E524.68130
G1 X63.991 Y90.507 E524.70242
G0 F10500 X74.507 Y90.417
G1 F3000 X74.658 Y90.215 E524.70614
G1 X75.366 Y90.215 E524.73064
G1 X76.073 Y90.215 E524.75515
G1 X76.780 Y90.215 E524.77967
G1 X77.487 Y90.215 E524.80418
G1 X78.269 Y90.289 E524.82869
G1 X78.256 Y89.924 E524.83957
G0 F10500 X81.823 Y89.955
G1 F3000 X82.437 Y90.215 E524.86281
G1 X83.144 Y90.215 E524.88732
G1 X83.851 Y90.215 E524.91187
G1 X84.558 Y90.215 E524.93642
G1 X85.463 Y90.412 E524.96097
G1 X85.327 Y89.924 E524.97606
G0 F10500 X103.006 Y89.924
G1 F3000 X103.651 Y90.216 E525.00060
G1 X104.358 Y90.216 E525.02516
G1 X105.065 Y90.216 E525.04971
G1 X105.772 Y90.216 E525.07426
G1 X106.578 Y90.315 E525.09883
G1 X106.541 Y89.924 E525.11053
G0 F10500 X92.860 Y89.641
G0 X92.860 Y66.360
G0 X106.734 Y66.076
G1 F3000 X106.088 Y65.784 E525.13511
G1 X105.381 Y65.784 E525.15966
G1 X104.674 Y65.784 E525.18421
G1 X103.967 Y65.784 E525.20877
G1 X103.081 Y65.605 E525.23332
G1 X103.199 Y66.076 E525.24778
G0 F10500 X85.721 Y65.568
G1 F3000 X85.582 Y65.784 E525.25099
G1 X84.875 Y65.784 E525.27554
G1 X84.168 Y65.784 E525.30010
G1 X83.461 Y65.784 E525.32465
G1 X82.754 Y65.784 E525.34920
G1 X81.965 Y65.702 E525.37377
G1 X81.986 Y66.076 E525.38493
G0 F10500 X78.405 Y66.031
G1 F3000 X77.804 Y65.784 E525.40765
G1 X77.097 Y65.784 E525.43220
G1 X76.390 Y65.784 E525.45675
G1 X75.683 Y65.784 E525.48131
G1 X74.772 Y65.579 E525.50589
G1 X74.915 Y66.076 E525.52129
G0 F10500 X64.020 Y65.788
G1 F3000 X63.661 Y65.782 E525.53378
G1 X62.954 Y65.782 E525.55829
G1 X62.247 Y65.782 E525.58280
G1 X61.539 Y65.782 E525.60731
G1 X60.832 Y65.782 E525.63182
G1 X60.188 Y65.491 E525.65286
G0 F10500 X57.545 Y65.676
G1 F3000 X57.297 Y65.782 E525.66067
G1 X56.590 Y65.782 E525.68518
G1 X55.883 Y65.782 E525.70969
G1 X55.176 Y65.782 E525.73420
G1 X54.468 Y65.782 E525.75871
G1 X53.824 Y65.491 E525.77975
G0 F10500 X50.871 Y66.074
G1 F3000 X50.226 Y65.782 E525.80426
G1 X49.519 Y65.782 E525.82877
G1 X48.812 Y65.782 E525.85328
G1 X48.104 Y65.782 E525.87778
G1 X47.238 Y65.622 E525.90228
G1 X47.335 Y66.074 E525.91605
;LAYER:7
G0 F10500 X47.851 Y66.250 Z3.085
;TYPE:WALL-INNER
G1 F2100 X43.749 Y66.250 E526.03822
G1 X43.749 Y89.750 E526.73813
G1 X47.851 Y89.750 E526.86030
G1 X47.851 Y90.683 E526.88809
G1 X42.815 Y90.683 E527.03808
G1 X42.815 Y65.317 E527.79356
G1 X47.851 Y65.317 E527.94355
G1 X47.851 Y66.250 E527.97134
G0 F10500 X48.351 Y66.750
;TYPE:WALL-OUTER
G1 F1800 X44.249 Y66.750 E528.09351
G1 X44.249 Y89.250 E528.76364
G1 X48.351 Y89.250 E528.88581
G1 X48.351 Y91.183 E528.94338
G1 X42.315 Y91.183 E529.12315
G1 X42.315 Y64.817 E529.90842
G1 X48.351 Y64.817 E530.08819
G1 X48.351 Y66.750 E530.14576
G0 F10500 X48.001 Y66.490
G0 X44.110 Y65.490
;TYPE:FILL
G1 F2400 X42.989 Y66.611 E530.19298
G0 F10500 X42.989 Y67.738
G1 F2400 X43.574 Y68.322 E530.21760
G0 F10500 X43.574 Y73.098
G1 F2400 X42.989 Y73.682 E530.24222
G0 F10500 X42.989 Y74.809
G1 F2400 X43.574 Y75.393 E530.26684
G0 F10500 X43.574 Y80.169
G1 F2400 X42.989 Y80.753 E530.29146
G0 F10500 X42.989 Y81.880
G1 F2400 X43.574 Y82.464 E530.31608
G0 F10500 X43.574 Y87.240
G1 F2400 X42.989 Y87.824 E530.34069
G0 F10500 X42.989 Y88.951
G1 F2400 X43.768 Y89.729 E530.36529
G1 X44.544 Y90.506 E530.39799
G0 F10500 X47.378 Y90.507
G1 F2400 X47.675 Y90.209 E530.41052
G1 F600 E528.91052
G1 Z3.185
G0 F10500 X50.079 Y66.250
;TYPE:WALL-INNER
G1 Z3.085
G1 F600 E530.41052
G1 F2100 X50.079 Y65.317 E530.43831
G1 X54.481 Y65.317 E530.56942
G1 X54.481 Y66.250 E530.59721
G1 X50.079 Y66.250 E530.72831
G0 F10500 X49.579 Y66.750
;TYPE:WALL-OUTER
G1 F1800 X49.579 Y64.817 E530.78588
G1 X54.981 Y64.817 E530.94677
G1 X54.981 Y66.750 E531.00435
G1 X49.579 Y66.750 E531.16524
G0 F10500 X50.597 Y66.074
;TYPE:FILL
G1 F2400 X51.181 Y65.490 E531.18983
G1 F600 E529.68983
G1 Z3.185
G0 F10500 X56.710 Y65.317
;TYPE:WALL-INNER
G1 Z3.085
G1 F600 E531.18983
G1 F2100 X60.957 Y65.317 E531.31632
G1 X60.957 Y66.250 E531.34411
G1 X56.709 Y66.250 E531.47063
G1 X56.710 Y65.317 E531.49842
G0 F10500 X56.209 Y64.817
;TYPE:WALL-OUTER
G1 F1800 X61.457 Y64.817 E531.65472
G1 X61.457 Y66.750 E531.71229
G1 X56.209 Y66.750 E531.86860
G1 X56.209 Y64.817 E531.92617
G0 F10500 X56.559 Y65.077
G0 X57.668 Y66.074
;TYPE:FILL
G1 F2400 X58.252 Y65.491 E531.95074
G1 F600 E530.45074
G1 Z3.185
G0 F10500 X63.186 Y65.317
;TYPE:WALL-INNER
G1 Z3.085
G1 F600 E531.95074
G1 F2100 X75.343 Y65.317 E532.31282
G1 X75.342 Y66.251 E532.34064
G1 X68.212 Y66.251 E532.55299
G1 X68.212 Y89.750 E533.25287
G1 X75.342 Y89.750 E533.46523
G1 X75.342 Y90.683 E533.49302
G1 X63.186 Y90.683 E533.85506
G1 X63.186 Y89.750 E533.88285
G1 X67.249 Y89.750 E534.00386
G1 X67.249 Y66.250 E534.70377
G1 X63.186 Y66.250 E534.82478
G1 X63.186 Y65.317 E534.85257
G0 F10500 X62.685 Y64.817
;TYPE:WALL-OUTER
G1 F1800 X75.843 Y64.817 E535.24446
G1 X75.843 Y66.751 E535.30206
G1 X68.712 Y66.751 E535.51445
G1 X68.712 Y89.250 E536.18454
G1 X75.842 Y89.250 E536.39690
G1 X75.843 Y91.183 E536.45447
G1 X62.686 Y91.183 E536.84633
G1 X62.685 Y89.250 E536.90390
G1 X66.749 Y89.250 E537.02494
G1 X66.749 Y66.750 E537.69507
G1 X62.686 Y66.750 E537.81608
G1 X62.685 Y64.817 E537.87365
G0 F10500 X63.036 Y65.077
G0 X64.739 Y66.075
;TYPE:FILL
G1 F2400 X65.323 Y65.490 E537.89827
G0 F10500 X69.027 Y65.491
G1 F2400 X69.611 Y66.075 E537.92286
G0 F10500 X71.809 Y66.076
G1 F2400 X72.394 Y65.491 E537.94750
G0 F10500 X68.321 Y66.360
G0 X68.036 Y69.849
G1 F2400 X67.423 Y70.709 E537.97323
G1 X68.037 Y71.572 E538.00478
G0 F10500 X68.036 Y76.920
G1 F2400 X67.423 Y77.780 E538.03051
G1 X68.037 Y78.643 E538.06205
G0 F10500 X68.036 Y83.991
G1 F2400 X67.423 Y84.852 E538.08780
G1 X68.037 Y85.714 E538.11932
G0 F10500 X68.321 Y89.641
G0 X69.174 Y89.924
G1 F2400 X68.592 Y90.506 E538.14384
G0 F10500 X65.758 Y90.506
G1 F2400 X65.175 Y89.924 E538.16837
G0 F10500 X72.247 Y89.924
G1 F2400 X72.829 Y90.506 E538.19289
G1 F600 E536.69289
G1 Z3.185
G0 F10500 X77.571 Y66.251
;TYPE:WALL-INNER
G1 Z3.085
G1 F600 E538.19289
G1 F2100 X77.571 Y65.317 E538.22070
G1 X82.659 Y65.317 E538.37224
G1 X82.658 Y66.251 E538.40006
G1 X77.571 Y66.251 E538.55157
G0 F10500 X77.071 Y66.751
;TYPE:WALL-OUTER
G1 F1800 X77.071 Y64.817 E538.60917
G1 X83.159 Y64.817 E538.79049
G1 X83.159 Y66.751 E538.84809
G1 X77.071 Y66.751 E539.02941
G0 F10500 X77.331 Y66.401
G0 X78.880 Y66.076
;TYPE:FILL
G1 F2400 X79.465 Y65.491 E539.05405
G1 F600 E537.55405
G1 Z3.185
G0 F10500 X84.887 Y65.317
;TYPE:WALL-INNER
G1 Z3.085
G1 F600 E539.05405
G1 F2100 X103.677 Y65.317 E539.61368
G1 X103.677 Y66.251 E539.64150
G1 X92.751 Y66.251 E539.96691
G1 X92.751 Y89.750 E540.66679
G1 X103.677 Y89.750 E540.99221
G1 X103.677 Y90.683 E541.01999
G1 X84.887 Y90.683 E541.57962
G1 X84.887 Y89.750 E541.60741
G1 X91.711 Y89.750 E541.81065
G1 X91.711 Y66.251 E542.51053
G1 X84.887 Y66.251 E542.71377
G1 X84.887 Y65.317 E542.74159
G0 F10500 X84.387 Y64.817
;TYPE:WALL-OUTER
G1 F1800 X104.177 Y64.817 E543.33100
G1 X104.177 Y66.751 E543.38861
G1 X93.251 Y66.751 E543.71402
G1 X93.251 Y89.250 E544.38412
G1 X104.177 Y89.250 E544.70953
G1 X104.177 Y91.183 E544.76710
G1 X84.387 Y91.183 E545.35651
G1 X84.387 Y89.250 E545.41408
G1 X91.211 Y89.250 E545.61733
G1 X91.211 Y66.751 E546.28742
G1 X84.387 Y66.751 E546.49066
G1 X84.387 Y64.817 E546.54827
G0 F10500 X84.737 Y65.077
G0 X85.951 Y66.076
;TYPE:FILL
G1 F2400 X86.536 Y65.491 E546.57291
G0 F10500 X90.240 Y65.491
G1 F2400 X90.824 Y66.075 E546.59750
G0 F10500 X91.884 Y67.136
G1 F2400 X92.230 Y67.519 E546.62656
G1 X92.799 Y66.299 E546.65559
G1 X93.607 Y65.491 E546.68962
G0 F10500 X97.311 Y65.491
G1 F2400 X97.895 Y66.075 E546.71422
G0 F10500 X92.860 Y66.360
G0 X92.575 Y73.594
G1 F2400 X91.884 Y74.245 E546.74323
G1 X92.575 Y74.897 E546.77152
G0 F10500 X92.575 Y80.666
G1 F2400 X91.884 Y81.316 E546.80057
G1 X92.575 Y81.968 E546.82886
G0 F10500 X92.575 Y87.737
G1 F2400 X91.884 Y88.387 E546.85791
G1 X92.575 Y89.039 E546.88621
G0 F10500 X93.460 Y89.924
G1 F2400 X94.042 Y90.506 E546.91072
G0 F10500 X96.875 Y90.507
G1 F2400 X97.458 Y89.924 E546.93527
G0 F10500 X90.388 Y89.924
G1 F2400 X89.804 Y90.507 E546.95985
G0 F10500 X86.971 Y90.506
G1 F2400 X86.389 Y89.924 E546.98437
G0 F10500 X100.531 Y89.924
G1 F2400 X101.113 Y90.506 E547.00888
G0 F10500 X92.860 Y89.641
G0 X92.860 Y66.360
G0 X100.094 Y66.075
G1 F2400 X100.678 Y65.491 E547.03348
G1 F600 E545.53348
G1 Z3.185
G0 F10500 X105.905 Y65.317
;TYPE:WALL-INNER
G1 Z3.085
G1 F600 E547.03348
G1 F2100 X117.185 Y65.317 E547.36943
G1 X117.185 Y90.683 E548.12492
G1 X105.905 Y90.683 E548.46088
G1 X105.905 Y89.750 E548.48866
G1 X116.251 Y89.750 E548.79680
G1 X116.251 Y66.251 E549.49668
G1 X105.905 Y66.251 E549.80482
G1 X105.905 Y65.317 E549.83264
G0 F10500 X105.405 Y64.817
;TYPE:WALL-OUTER
G1 F1800 X117.685 Y64.817 E550.19838
G1 X117.685 Y91.183 E550.98365
G1 X105.405 Y91.183 E551.34939
G1 X105.405 Y89.250 E551.40696
G1 X115.751 Y89.250 E551.71510
G1 X115.751 Y66.751 E552.38519
G1 X105.405 Y66.751 E552.69333
G1 X105.405 Y64.817 E552.75093
G0 F10500 X105.755 Y65.077
G0 X107.164 Y66.076
;TYPE:FILL
G1 F2400 X107.749 Y65.491 E552.77557
G0 F10500 X111.454 Y65.492
G1 F2400 X112.037 Y66.075 E552.80013
G0 F10500 X114.235 Y66.076
G1 F2400 X114.820 Y65.491 E552.82477
G0 F10500 X116.142 Y66.360
G0 X116.425 Y70.463
G1 F2400 X116.717 Y71.002 E552.84931
G1 X117.009 Y70.374 E552.86994
G0 F10500 X117.009 Y77.445
G1 F2400 X116.425 Y77.781 E552.89450
G1 X117.009 Y78.118 E552.91458
G0 F10500 X117.009 Y84.516
G1 F2400 X116.425 Y84.852 E552.93914
G1 X117.009 Y85.189 E552.95922
G0 F10500 X116.142 Y89.641
G0 X114.673 Y89.924
G1 F2400 X115.256 Y90.507 E552.98378
G0 F10500 X111.600 Y89.924
G1 F2400 X111.017 Y90.508 E553.00836
G0 F10500 X108.185 Y90.507
G1 F2400 X107.602 Y89.924 E553.03291
G1 F600 E551.53291
G1 Z3.185
G0 F10500 X82.658 Y89.750
;TYPE:WALL-INNER
G1 Z3.085
G1 F600 E553.03291
G1 F2100 X82.658 Y90.683 E553.06070
G1 X77.571 Y90.683 E553.21221
G1 X77.571 Y89.750 E553.24000
G1 X82.658 Y89.750 E553.39150
G0 F10500 X83.158 Y89.250
;TYPE:WALL-OUTER
G1 F1800 X83.159 Y91.183 E553.44907
G1 X77.071 Y91.183 E553.63040
G1 X77.071 Y89.250 E553.68797
G1 X83.158 Y89.250 E553.86926
G0 F10500 X82.808 Y89.510
G0 X79.900 Y90.507
;TYPE:FILL
G1 F2400 X79.317 Y89.924 E553.89381
G1 F600 E552.39381
G1 Z3.185
G0 F10500 X60.957 Y89.750
;TYPE:WALL-INNER
G1 Z3.085
G1 F600 E553.89381
G1 F2100 X60.957 Y90.683 E553.92160
G1 X56.709 Y90.683 E554.04812
G1 X56.710 Y89.750 E554.07591
G1 X60.957 Y89.750 E554.20240
G0 F10500 X61.457 Y89.250
;TYPE:WALL-OUTER
G1 F1800 X61.457 Y91.183 E554.25997
G1 X56.209 Y91.183 E554.41627
G1 X56.209 Y89.250 E554.47385
G1 X61.457 Y89.250 E554.63015
G0 F10500 X61.107 Y89.510
G0 X58.687 Y90.506
;TYPE:FILL
G1 F2400 X58.104 Y89.924 E554.65468
G1 F600 E553.15468
G1 Z3.185
G0 F10500 X54.481 Y89.750
;TYPE:WALL-INNER
G1 Z3.085
G1 F600 E554.65468
G1 F2100 X54.481 Y90.683 E554.68247
G1 X50.079 Y90.683 E554.81358
G1 X50.079 Y89.750 E554.84137
G1 X54.481 Y89.750 E554.97247
G0 F10500 X54.981 Y89.250
;TYPE:WALL-OUTER
G1 F1800 X54.981 Y91.183 E555.03004
G1 X49.579 Y91.183 E555.19093
G1 X49.579 Y89.250 E555.24851
G1 X54.981 Y89.250 E555.40940
G0 F10500 X54.631 Y89.510
G0 X51.615 Y90.506
;TYPE:FILL
G1 F2400 X51.033 Y89.924 E555.43391
;LAYER:8
G1 F600 E553.93391
G1 Z3.185
G0 F10500 X47.471 Y89.750 Z3.465
;TYPE:WALL-INNER
G1 Z3.465
G1 F600 E555.43391
G1 F2100 X47.471 Y90.683 E555.46170
G1 X42.815 Y90.683 E555.60037
G1 X42.815 Y65.317 E556.35585
G1 X47.471 Y65.317 E556.49453
G1 X47.471 Y66.250 E556.52231
G1 X43.749 Y66.250 E556.63317
G1 X43.749 Y89.750 E557.33308
G1 X47.471 Y89.750 E557.44393
G0 F10500 X47.971 Y89.250
;TYPE:WALL-OUTER
G1 F1800 X47.971 Y91.183 E557.50150
G1 X42.315 Y91.183 E557.66996
G1 X42.315 Y64.817 E558.45522
G1 X47.971 Y64.817 E558.62368
G1 X47.971 Y66.750 E558.68125
G1 X44.249 Y66.750 E558.79210
G1 X44.249 Y89.250 E559.46223
G1 X47.971 Y89.250 E559.57308
G0 F10500 X47.711 Y89.600
G0 X44.545 Y90.507
;TYPE:FILL
G1 F2400 X43.768 Y89.729 E559.59758
G1 X42.989 Y88.951 E559.63037
G0 F10500 X42.989 Y87.824
G1 F2400 X43.574 Y87.240 E559.65499
G0 F10500 X43.574 Y82.464
G1 F2400 X42.989 Y81.880 E559.67961
G0 F10500 X42.989 Y80.753
G1 F2400 X43.574 Y80.169 E559.70423
G0 F10500 X43.574 Y75.393
G1 F2400 X42.989 Y74.809 E559.72885
G0 F10500 X42.989 Y73.682
G1 F2400 X43.574 Y73.098 E559.75347
G0 F10500 X43.574 Y68.322
G1 F2400 X42.989 Y67.738 E559.77809
G0 F10500 X42.989 Y66.611
G1 F2400 X44.110 Y65.491 E559.82528
G1 F600 E558.32528
G1 Z3.565
G0 F10500 X50.459 Y65.317
;TYPE:WALL-INNER
G1 Z3.465
G1 F600 E559.82528
G1 F2100 X54.101 Y65.317 E559.93375
G1 X54.101 Y66.250 E559.96154
G1 X50.459 Y66.250 E560.07001
G1 X50.459 Y65.317 E560.09780
G0 F10500 X49.959 Y64.817
;TYPE:WALL-OUTER
G1 F1800 X54.601 Y64.817 E560.23605
G1 X54.601 Y66.750 E560.29362
G1 X49.959 Y66.750 E560.43188
G1 X49.959 Y64.817 E560.48945
G0 F10500 X50.633 Y66.038
;TYPE:FILL
G1 F2400 X51.181 Y65.491 E560.51251
G1 F600 E559.01251
G1 Z3.565
G0 F10500 X57.090 Y65.317
;TYPE:WALL-INNER
G1 Z3.465
G1 F600 E560.51251
G1 F2100 X60.577 Y65.317 E560.61637
G1 X60.577 Y66.250 E560.64415
G1 X57.089 Y66.250 E560.74804
G1 X57.090 Y65.317 E560.77583
G0 F10500 X56.589 Y64.817
;TYPE:WALL-OUTER
G1 F1800 X61.077 Y64.817 E560.90949
G1 X61.077 Y66.750 E560.96707
G1 X56.589 Y66.750 E561.10073
G1 X56.589 Y64.817 E561.15830
G0 F10500 X56.940 Y65.077
G0 X57.669 Y66.074
;TYPE:FILL
G1 F2400 X58.252 Y65.491 E561.18286
G1 F600 E559.68286
G1 Z3.565
G0 F10500 X63.566 Y65.317
;TYPE:WALL-INNER
G1 Z3.465
G1 F600 E561.18286
G1 F2100 X74.963 Y65.317 E561.52230
G1 X74.962 Y66.251 E561.55012
G1 X68.212 Y66.251 E561.75116
G1 X68.212 Y89.750 E562.45104
G1 X74.962 Y89.750 E562.65207
G1 X74.962 Y90.683 E562.67986
G1 X63.566 Y90.683 E563.01927
G1 X63.566 Y89.750 E563.04706
G1 X67.249 Y89.750 E563.15675
G1 X67.249 Y66.250 E563.85666
G1 X63.566 Y66.250 E563.96636
G1 X63.566 Y65.317 E563.99414
G0 F10500 X63.065 Y64.817
;TYPE:WALL-OUTER
G1 F1800 X75.463 Y64.817 E564.36340
G1 X75.463 Y66.751 E564.42100
G1 X68.712 Y66.751 E564.62207
G1 X68.712 Y89.250 E565.29216
G1 X75.462 Y89.250 E565.49320
G1 X75.463 Y91.183 E565.55077
G1 X63.066 Y91.183 E565.92000
G1 X63.065 Y89.250 E565.97757
G1 X66.749 Y89.250 E566.08729
G1 X66.749 Y66.750 E566.75742
G1 X63.066 Y66.750 E566.86711
G1 X63.065 Y64.817 E566.92468
G0 F10500 X63.325 Y65.167
G0 X64.739 Y66.074
;TYPE:FILL
G1 F2400 X65.323 Y65.491 E566.94926
G0 F10500 X69.027 Y65.491
G1 F2400 X69.611 Y66.076 E566.97388
G0 F10500 X71.809 Y66.076
G1 F2400 X72.394 Y65.491 E566.99852
G0 F10500 X68.321 Y66.360
G0 X68.036 Y69.849
G1 F2400 X67.423 Y70.709 E567.02425
G1 X68.037 Y71.572 E567.05579
G0 F10500 X68.036 Y76.920
G1 F2400 X67.423 Y77.780 E567.08152
G1 X68.037 Y78.643 E567.11306
G0 F10500 X68.036 Y83.991
G1 F2400 X67.423 Y84.852 E567.13881
G1 X68.037 Y85.714 E567.17033
G0 F10500 X68.321 Y89.641
G0 X69.174 Y89.924
G1 F2400 X68.591 Y90.507 E567.19489
G0 F10500 X65.758 Y90.507
G1 F2400 X65.175 Y89.924 E567.21945
G0 F10500 X72.247 Y89.924
G1 F2400 X72.829 Y90.507 E567.24398
G1 F600 E565.74398
G1 Z3.565
G0 F10500 X77.951 Y66.251
;TYPE:WALL-INNER
G1 Z3.465
G1 F600 E567.24398
G1 F2100 X77.951 Y65.317 E567.27180
G1 X82.279 Y65.317 E567.40070
G1 X82.278 Y66.251 E567.42852
G1 X77.951 Y66.251 E567.55739
G0 F10500 X77.451 Y66.751
;TYPE:WALL-OUTER
G1 F1800 X77.451 Y64.817 E567.61499
G1 X82.779 Y64.817 E567.77368
G1 X82.779 Y66.751 E567.83128
G1 X77.451 Y66.751 E567.98997
G0 F10500 X77.711 Y66.401
G0 X78.880 Y66.076
;TYPE:FILL
G1 F2400 X79.464 Y65.492 E568.01456
G1 F600 E566.51456
G1 Z3.565
G0 F10500 X85.267 Y65.317
;TYPE:WALL-INNER
G1 Z3.465
G1 F600 E568.01456
G1 F2100 X103.297 Y65.317 E568.55156
G1 X103.297 Y66.251 E568.57938
G1 X92.751 Y66.251 E568.89347
G1 X92.751 Y89.750 E569.59335
G1 X103.297 Y89.750 E569.90745
G1 X103.297 Y90.683 E569.93523
G1 X85.267 Y90.683 E570.47223
G1 X85.267 Y89.750 E570.50002
G1 X91.711 Y89.750 E570.69194
G1 X91.711 Y66.251 E571.39182
G1 X85.267 Y66.251 E571.58374
G1 X85.267 Y65.317 E571.61156
G0 F10500 X84.767 Y64.817
;TYPE:WALL-OUTER
G1 F1800 X103.797 Y64.817 E572.17834
G1 X103.797 Y66.751 E572.23594
G1 X93.251 Y66.751 E572.55004
G1 X93.251 Y89.250 E573.22013
G1 X103.797 Y89.250 E573.53423
G1 X103.797 Y91.183 E573.59180
G1 X84.767 Y91.183 E574.15858
G1 X84.767 Y89.250 E574.21615
G1 X91.211 Y89.250 E574.40807
G1 X91.211 Y66.751 E575.07817
G1 X84.767 Y66.751 E575.27009
G1 X84.767 Y64.817 E575.32769
G0 F10500 X85.117 Y65.077
G0 X85.951 Y66.076
;TYPE:FILL
G1 F2400 X86.535 Y65.492 E575.35229
G0 F10500 X90.240 Y65.492
G1 F2400 X90.825 Y66.076 E575.37691
G0 F10500 X91.884 Y67.136
G1 F2400 X92.230 Y67.519 E575.40597
G1 X92.798 Y66.299 E575.43498
G1 X93.606 Y65.492 E575.46900
G0 F10500 X97.312 Y65.492
G1 F2400 X97.895 Y66.075 E575.49355
G0 F10500 X92.860 Y66.360
G0 X92.575 Y73.594
G1 F2400 X91.884 Y74.245 E575.52256
G1 X92.575 Y74.897 E575.55086
G0 F10500 X92.575 Y80.666
G1 F2400 X91.884 Y81.316 E575.57990
G1 X92.575 Y81.968 E575.60820
G0 F10500 X92.575 Y87.737
G1 F2400 X91.884 Y88.387 E575.63725
G1 X92.575 Y89.039 E575.66554
G0 F10500 X93.460 Y89.924
G1 F2400 X94.043 Y90.507 E575.69010
G0 F10500 X96.875 Y90.508
G1 F2400 X97.458 Y89.924 E575.71467
G0 F10500 X90.388 Y89.924
G1 F2400 X89.803 Y90.508 E575.73929
G0 F10500 X86.972 Y90.507
G1 F2400 X86.389 Y89.924 E575.76385
G0 F10500 X100.531 Y89.924
G1 F2400 X101.114 Y90.507 E575.78841
G0 F10500 X92.860 Y89.641
G0 X92.860 Y66.360
G0 X100.093 Y66.076
G1 F2400 X100.677 Y65.492 E575.81300
G1 F600 E574.31300
G1 Z3.565
G0 F10500 X106.285 Y65.317
;TYPE:WALL-INNER
G1 Z3.465
G1 F600 E575.81300
G1 F2100 X117.185 Y65.317 E576.13764
G1 X117.185 Y90.683 E576.89313
G1 X106.285 Y90.683 E577.21777
G1 X106.285 Y89.750 E577.24555
G1 X116.251 Y89.750 E577.54238
G1 X116.251 Y66.251 E578.24226
G1 X106.285 Y66.251 E578.53908
G1 X106.285 Y65.317 E578.56689
G0 F10500 X105.785 Y64.817
;TYPE:WALL-OUTER
G1 F1800 X117.685 Y64.817 E578.92132
G1 X117.685 Y91.183 E579.70658
G1 X105.785 Y91.183 E580.06101
G1 X105.785 Y89.250 E580.11858
G1 X115.751 Y89.250 E580.41540
G1 X115.751 Y66.751 E581.08550
G1 X105.785 Y66.751 E581.38232
G1 X105.785 Y64.817 E581.43992
G0 F10500 X106.135 Y65.077
G0 X107.164 Y66.076
;TYPE:FILL
G1 F2400 X107.748 Y65.492 E581.46452
G0 F10500 X111.454 Y65.492
G1 F2400 X112.038 Y66.076 E581.48911
G0 F10500 X114.235 Y66.076
G1 F2400 X114.819 Y65.492 E581.51371
G0 F10500 X116.142 Y66.360
G0 X116.425 Y70.463
G1 F2400 X116.717 Y71.002 E581.53825
G1 X117.009 Y70.374 E581.55888
G0 F10500 X117.009 Y77.445
G1 F2400 X116.425 Y77.781 E581.58344
G1 X117.009 Y78.118 E581.60352
G0 F10500 X117.009 Y84.516
G1 F2400 X116.425 Y84.852 E581.62808
G1 X117.009 Y85.189 E581.64816
G0 F10500 X116.142 Y89.641
G0 X114.673 Y89.924
G1 F2400 X115.256 Y90.508 E581.67274
G0 F10500 X111.600 Y89.924
G1 F2400 X111.017 Y90.508 E581.69732
G0 F10500 X108.185 Y90.508
G1 F2400 X107.602 Y89.924 E581.72190
G1 F600 E580.22190
G1 Z3.565
G0 F10500 X82.278 Y89.750
;TYPE:WALL-INNER
G1 Z3.465
G1 F600 E581.72190
G1 F2100 X82.278 Y90.683 E581.74968
G1 X77.951 Y90.683 E581.87856
G1 X77.951 Y89.750 E581.90634
G1 X82.278 Y89.750 E582.03522
G0 F10500 X82.778 Y89.250
;TYPE:WALL-OUTER
G1 F1800 X82.779 Y91.183 E582.09279
G1 X77.451 Y91.183 E582.25147
G1 X77.451 Y89.250 E582.30905
G1 X82.778 Y89.250 E582.46770
G0 F10500 X82.428 Y89.510
G0 X79.900 Y90.507
;TYPE:FILL
G1 F2400 X79.318 Y89.924 E582.49224
G1 F600 E580.99224
G1 Z3.565
G0 F10500 X60.577 Y89.750
;TYPE:WALL-INNER
G1 Z3.465
G1 F600 E582.49224
G1 F2100 X60.577 Y90.683 E582.52002
G1 X57.089 Y90.683 E582.62391
G1 X57.090 Y89.750 E582.65170
G1 X60.577 Y89.750 E582.75555
G0 F10500 X61.077 Y89.250
;TYPE:WALL-OUTER
G1 F1800 X61.077 Y91.183 E582.81312
G1 X56.589 Y91.183 E582.94679
G1 X56.589 Y89.250 E583.00436
G1 X61.077 Y89.250 E583.13803
G0 F10500 X60.727 Y89.510
G0 X58.687 Y90.507
;TYPE:FILL
G1 F2400 X58.105 Y89.924 E583.16256
G1 F600 E581.66256
G1 Z3.565
G0 F10500 X54.101 Y89.750
;TYPE:WALL-INNER
G1 Z3.465
G1 F600 E583.16256
G1 F2100 X54.101 Y90.683 E583.19035
G1 X50.459 Y90.683 E583.29882
G1 X50.459 Y89.750 E583.32661
G1 X54.101 Y89.750 E583.43508
G0 F10500 X54.601 Y89.250
;TYPE:WALL-OUTER
G1 F1800 X54.601 Y91.183 E583.49265
G1 X49.959 Y91.183 E583.63091
G1 X49.959 Y89.250 E583.68848
G1 X54.601 Y89.250 E583.82673
G0 F10500 X54.251 Y89.510
G0 X51.616 Y90.507
;TYPE:FILL
G1 F2400 X51.034 Y89.924 E583.85127
;LAYER:9
G1 F600 E582.35127
G1 Z3.565
G0 F10500 X47.091 Y89.750 Z3.845
;TYPE:WALL-INNER
G1 Z3.845
G1 F600 E583.85127
G1 F2100 X47.091 Y90.683 E583.87906
G1 X42.815 Y90.683 E584.00641
G1 X42.815 Y65.317 E584.76190
G1 X47.091 Y65.317 E584.88925
G1 X47.091 Y66.250 E584.91704
G1 X43.749 Y66.250 E585.01657
G1 X43.749 Y89.750 E585.71648
G1 X47.091 Y89.750 E585.81602
G0 F10500 X43.858 Y89.641
G0 X43.899 Y89.250
G0 X44.249 Y89.250
;TYPE:WALL-OUTER
G1 F1800 X47.591 Y89.250 E585.91555
G1 X47.591 Y91.183 E585.97313
G1 X42.315 Y91.183 E586.13026
G1 X42.315 Y64.817 E586.91553
G1 X47.591 Y64.817 E587.07267
G1 X47.591 Y66.750 E587.13024
G1 X44.249 Y66.750 E587.22978
G1 X44.249 Y89.250 E587.89990
G0 F10500 X43.962 Y89.924
;TYPE:FILL
G1 F2400 X44.545 Y90.507 E587.92446
G0 F10500 X43.574 Y89.535
G1 F2400 X42.989 Y88.951 E587.94908
G0 F10500 X42.989 Y87.824
G1 F2400 X43.574 Y87.240 E587.97370
G0 F10500 X43.574 Y82.464
G1 F2400 X42.989 Y81.880 E587.99832
G0 F10500 X42.989 Y80.753
G1 F2400 X43.574 Y80.169 E588.02294
G0 F10500 X43.574 Y75.393
G1 F2400 X42.989 Y74.809 E588.04755
G0 F10500 X42.989 Y73.682
G1 F2400 X43.574 Y73.098 E588.07217
G0 F10500 X43.574 Y68.322
G1 F2400 X42.989 Y67.738 E588.09679
G0 F10500 X42.989 Y66.611
G1 F2400 X44.110 Y65.491 E588.14399
G1 F600 E586.64399
G1 Z3.945
G0 F10500 X50.839 Y65.317
;TYPE:WALL-INNER
G1 Z3.845
G1 F600 E588.14399
G1 F2100 X53.721 Y65.317 E588.22982
G1 X53.721 Y66.250 E588.25761
G1 X50.839 Y66.250 E588.34345
G1 X50.839 Y65.317 E588.37124
G0 F10500 X50.339 Y64.817
;TYPE:WALL-OUTER
G1 F1800 X54.221 Y64.817 E588.48685
G1 X54.221 Y66.750 E588.54443
G1 X50.339 Y66.750 E588.66004
G1 X50.339 Y64.817 E588.71762
G0 F10500 X51.014 Y65.658
;TYPE:FILL
G1 F2400 X51.181 Y65.491 E588.72465
G1 F600 E587.22465
G1 Z3.945
G0 F10500 X57.470 Y65.317
;TYPE:WALL-INNER
G1 Z3.845
G1 F600 E588.72465
G1 F2100 X60.197 Y65.317 E588.80587
G1 X60.197 Y66.250 E588.83366
G1 X57.470 Y66.250 E588.91488
G1 X57.470 Y65.317 E588.94266
G0 F10500 X56.969 Y64.817
;TYPE:WALL-OUTER
G1 F1800 X60.697 Y64.817 E589.05370
G1 X60.697 Y66.750 E589.11127
G1 X56.969 Y66.750 E589.22230
G1 X56.969 Y64.817 E589.27987
G0 F10500 X57.668 Y66.074
;TYPE:FILL
G1 F2400 X58.252 Y65.490 E589.30447
G1 F600 E587.80447
G1 Z3.945
G0 F10500 X63.945 Y65.317
;TYPE:WALL-INNER
G1 Z3.845
G1 F600 E589.30447
G1 F2100 X74.582 Y65.317 E589.62128
G1 X74.582 Y66.251 E589.64909
G1 X68.212 Y66.251 E589.83881
G1 X68.212 Y89.750 E590.53869
G1 X74.582 Y89.750 E590.72841
G1 X74.583 Y90.683 E590.75620
G1 X63.946 Y90.683 E591.07301
G1 X63.945 Y89.750 E591.10080
G1 X67.249 Y89.750 E591.19920
G1 X67.249 Y66.250 E591.89911
G1 X63.946 Y66.250 E591.99748
G1 X63.945 Y65.317 E592.02527
G0 F10500 X63.445 Y64.817
;TYPE:WALL-OUTER
G1 F1800 X75.083 Y64.817 E592.37189
G1 X75.083 Y66.751 E592.42949
G1 X68.712 Y66.751 E592.61924
G1 X68.712 Y89.250 E593.28934
G1 X75.082 Y89.250 E593.47906
G1 X75.083 Y91.183 E593.53663
G1 X63.446 Y91.183 E593.88322
G1 X63.445 Y89.250 E593.94079
G1 X66.749 Y89.250 E594.03919
G1 X66.749 Y66.750 E594.70932
G1 X63.446 Y66.750 E594.80769
G1 X63.445 Y64.817 E594.86527
G0 F10500 X63.705 Y65.167
G0 X64.739 Y66.074
;TYPE:FILL
G1 F2400 X65.323 Y65.491 E594.88984
G0 F10500 X69.027 Y65.492
G1 F2400 X69.611 Y66.076 E594.91444
G0 F10500 X71.809 Y66.076
G1 F2400 X72.394 Y65.491 E594.93908
G0 F10500 X68.321 Y66.360
G0 X68.036 Y69.849
G1 F2400 X67.423 Y70.709 E594.96481
G1 X68.037 Y71.572 E594.99636
G0 F10500 X68.036 Y76.920
G1 F2400 X67.423 Y77.780 E595.02209
G1 X68.037 Y78.643 E595.05363
G0 F10500 X68.036 Y83.991
G1 F2400 X67.423 Y84.852 E595.07938
G1 X68.037 Y85.714 E595.11090
G0 F10500 X68.321 Y89.641
G0 X69.174 Y89.924
G1 F2400 X68.591 Y90.507 E595.13546
G0 F10500 X65.758 Y90.507
G1 F2400 X65.175 Y89.924 E595.16001
G0 F10500 X72.247 Y89.924
G1 F2400 X72.829 Y90.507 E595.18455
G1 F600 E593.68455
G1 Z3.945
G0 F10500 X78.331 Y66.251
;TYPE:WALL-INNER
G1 Z3.845
G1 F600 E595.18455
G1 F2100 X78.331 Y65.317 E595.21236
G1 X81.898 Y65.317 E595.31860
G1 X81.898 Y66.251 E595.34642
G1 X78.331 Y66.251 E595.45266
G0 F10500 X77.831 Y66.751
;TYPE:WALL-OUTER
G1 F1800 X77.831 Y64.817 E595.51026
G1 X82.399 Y64.817 E595.64631
G1 X82.399 Y66.751 E595.70391
G1 X77.831 Y66.751 E595.83996
G0 F10500 X78.881 Y66.075
;TYPE:FILL
G1 F2400 X79.465 Y65.491 E595.86456
G1 F600 E594.36456
G1 Z3.945
G0 F10500 X85.647 Y65.317
;TYPE:WALL-INNER
G1 Z3.845
G1 F600 E595.86456
G1 F2100 X102.917 Y65.317 E596.37892
G1 X102.917 Y66.251 E596.40673
G1 X92.751 Y66.251 E596.70951
G1 X92.751 Y89.750 E597.40939
G1 X102.917 Y89.750 E597.71217
G1 X102.917 Y90.683 E597.73996
G1 X85.647 Y90.683 E598.25432
G1 X85.647 Y89.750 E598.28210
G1 X91.711 Y89.750 E598.46271
G1 X91.711 Y66.251 E599.16259
G1 X85.647 Y66.251 E599.34320
G1 X85.647 Y65.317 E599.37102
G0 F10500 X85.147 Y64.817
;TYPE:WALL-OUTER
G1 F1800 X103.417 Y64.817 E599.91516
G1 X103.417 Y66.751 E599.97276
G1 X93.251 Y66.751 E600.27554
G1 X93.251 Y89.250 E600.94563
G1 X103.417 Y89.250 E601.24841
G1 X103.417 Y91.183 E601.30598
G1 X85.147 Y91.183 E601.85012
G1 X85.147 Y89.250 E601.90770
G1 X91.211 Y89.250 E602.08830
G1 X91.211 Y66.751 E602.75840
G1 X85.147 Y66.751 E602.93900
G1 X85.147 Y64.817 E602.99661
G0 F10500 X85.951 Y66.076
;TYPE:FILL
G1 F2400 X86.535 Y65.492 E603.02120
G0 F10500 X90.240 Y65.492
G1 F2400 X90.825 Y66.076 E603.04582
G0 F10500 X91.884 Y67.136
G1 F2400 X92.230 Y67.519 E603.07488
G1 X92.798 Y66.299 E603.10390
G1 X93.606 Y65.492 E603.13791
G0 F10500 X97.312 Y65.492
G1 F2400 X97.895 Y66.075 E603.16246
G0 F10500 X92.860 Y66.360
G0 X92.575 Y73.594
G1 F2400 X91.884 Y74.245 E603.19147
G1 X92.575 Y74.897 E603.21977
G0 F10500 X92.575 Y80.666
G1 F2400 X91.884 Y81.316 E603.24882
G1 X92.575 Y81.968 E603.27711
G0 F10500 X92.575 Y87.737
G1 F2400 X91.884 Y88.387 E603.30616
G1 X92.575 Y89.039 E603.33445
G0 F10500 X93.461 Y89.925
G1 F2400 X94.043 Y90.507 E603.35897
G0 F10500 X96.875 Y90.508
G1 F2400 X97.458 Y89.924 E603.38354
G0 F10500 X90.388 Y89.924
G1 F2400 X89.803 Y90.508 E603.40816
G0 F10500 X86.972 Y90.507
G1 F2400 X86.389 Y89.924 E603.43272
G0 F10500 X100.532 Y89.925
G1 F2400 X101.114 Y90.507 E603.45723
G0 F10500 X92.860 Y89.641
G0 X92.860 Y66.360
G0 X100.093 Y66.076
G1 F2400 X100.677 Y65.492 E603.48183
G1 F600 E601.98183
G1 Z3.945
G0 F10500 X106.665 Y65.317
;TYPE:WALL-INNER
G1 Z3.845
G1 F600 E603.48183
G1 F2100 X117.185 Y65.317 E603.79515
G1 X117.185 Y90.683 E604.55064
G1 X106.665 Y90.683 E604.86396
G1 X106.665 Y89.750 E604.89175
G1 X116.251 Y89.750 E605.17725
G1 X116.251 Y66.251 E605.87713
G1 X106.665 Y66.251 E606.16263
G1 X106.665 Y65.317 E606.19045
G0 F10500 X106.165 Y64.817
;TYPE:WALL-OUTER
G1 F1800 X117.685 Y64.817 E606.53355
G1 X117.685 Y91.183 E607.31882
G1 X106.165 Y91.183 E607.66193
G1 X106.165 Y89.250 E607.71950
G1 X115.751 Y89.250 E608.00500
G1 X115.751 Y66.751 E608.67510
G1 X106.165 Y66.751 E608.96060
G1 X106.165 Y64.817 E609.01820
G0 F10500 X106.515 Y65.077
G0 X107.164 Y66.076
;TYPE:FILL
G1 F2400 X107.748 Y65.492 E609.04280
G0 F10500 X111.454 Y65.492
G1 F2400 X112.038 Y66.076 E609.06740
G0 F10500 X114.235 Y66.076
G1 F2400 X114.819 Y65.492 E609.09200
G0 F10500 X116.142 Y66.360
G0 X116.425 Y70.463
G1 F2400 X116.717 Y71.002 E609.11654
G1 X117.009 Y70.374 E609.13716
G0 F10500 X117.009 Y77.445
G1 F2400 X116.425 Y77.781 E609.16172
G1 X117.009 Y78.118 E609.18181
G0 F10500 X117.009 Y84.516
G1 F2400 X116.425 Y84.852 E609.20637
G1 X117.009 Y85.189 E609.22645
G0 F10500 X116.142 Y89.641
G0 X114.673 Y89.924
G1 F2400 X115.256 Y90.508 E609.25103
G0 F10500 X111.600 Y89.924
G1 F2400 X111.017 Y90.508 E609.27560
G0 F10500 X108.185 Y90.508
G1 F2400 X107.602 Y89.924 E609.30018
G1 F600 E607.80018
G1 Z3.945
G0 F10500 X81.898 Y89.750
;TYPE:WALL-INNER
G1 Z3.845
G1 F600 E609.30018
G1 F2100 X81.899 Y90.683 E609.32797
G1 X78.331 Y90.683 E609.43424
G1 X78.331 Y89.750 E609.46202
G1 X81.898 Y89.750 E609.56826
G0 F10500 X82.398 Y89.250
;TYPE:WALL-OUTER
G1 F1800 X82.399 Y91.183 E609.62583
G1 X77.831 Y91.183 E609.76188
G1 X77.831 Y89.250 E609.81945
G1 X82.398 Y89.250 E609.95547
G0 F10500 X82.048 Y89.510
G0 X79.900 Y90.506
;TYPE:FILL
G1 F2400 X79.317 Y89.924 E609.98001
G1 F600 E608.48001
G1 Z3.945
G0 F10500 X60.197 Y89.750
;TYPE:WALL-INNER
G1 Z3.845
G1 F600 E609.98001
G1 F2100 X60.197 Y90.683 E610.00780
G1 X57.470 Y90.683 E610.08902
G1 X57.470 Y89.750 E610.11680
G1 X60.197 Y89.750 E610.19802
G0 F10500 X60.697 Y89.250
;TYPE:WALL-OUTER
G1 F1800 X60.697 Y91.183 E610.25560
G1 X56.969 Y91.183 E610.36663
G1 X56.969 Y89.250 E610.42420
G1 X60.697 Y89.250 E610.53523
G0 F10500 X60.347 Y89.510
G0 X58.687 Y90.506
;TYPE:FILL
G1 F2400 X58.104 Y89.924 E610.55977
G1 F600 E609.05977
G1 Z3.945
G0 F10500 X53.721 Y89.750
;TYPE:WALL-INNER
G1 Z3.845
G1 F600 E610.55977
G1 F2100 X53.721 Y90.683 E610.58755
G1 X50.839 Y90.683 E610.67339
G1 X50.839 Y89.750 E610.70118
G1 X53.721 Y89.750 E610.78701
G0 F10500 X54.221 Y89.250
;TYPE:WALL-OUTER
G1 F1800 X54.221 Y91.183 E610.84459
G1 X50.339 Y91.183 E610.96020
G1 X50.339 Y89.250 E611.01778
G1 X54.221 Y89.250 E611.13339
G0 F10500 X53.871 Y89.510
G0 X51.616 Y90.507
;TYPE:FILL
G1 F2400 X51.033 Y89.924 E611.15795
;LAYER:10
G1 F600 E609.65795
G1 Z3.945
G0 F10500 X46.711 Y89.750 Z4.225
;TYPE:WALL-INNER
G1 Z4.225
G1 F600 E611.15795
G1 F2100 X46.711 Y90.683 E611.18574
G1 X42.815 Y90.683 E611.30177
G1 X42.815 Y65.317 E612.05726
G1 X46.711 Y65.317 E612.17330
G1 X46.711 Y66.250 E612.20108
G1 X43.749 Y66.250 E612.28930
G1 X43.749 Y89.750 E612.98921
G1 X46.711 Y89.750 E613.07743
G0 F10500 X43.858 Y89.641
G0 X43.899 Y89.250
G0 X44.249 Y89.250
;TYPE:WALL-OUTER
G1 F1800 X47.211 Y89.250 E613.16565
G1 X47.211 Y91.183 E613.22322
G1 X42.315 Y91.183 E613.36904
G1 X42.315 Y64.817 E614.15431
G1 X47.211 Y64.817 E614.30013
G1 X47.211 Y66.750 E614.35770
G1 X44.249 Y66.750 E614.44592
G1 X44.249 Y89.250 E615.11604
G0 F10500 X43.962 Y89.924
;TYPE:FILL
G1 F2400 X44.544 Y90.506 E615.14056
G0 F10500 X43.574 Y89.535
G1 F2400 X42.989 Y88.951 E615.16518
G0 F10500 X42.989 Y87.824
G1 F2400 X43.574 Y87.240 E615.18980
G0 F10500 X43.574 Y82.464
G1 F2400 X42.989 Y81.880 E615.21441
G0 F10500 X42.989 Y80.753
G1 F2400 X43.574 Y80.169 E615.23903
G0 F10500 X43.574 Y75.393
G1 F2400 X42.989 Y74.809 E615.26365
G0 F10500 X42.989 Y73.682
G1 F2400 X43.574 Y73.098 E615.28827
G0 F10500 X43.574 Y68.322
G1 F2400 X42.989 Y67.738 E615.31289
G0 F10500 X42.989 Y66.611
G1 F2400 X44.110 Y65.490 E615.36011
G1 F600 E613.86011
G1 Z4.325
G0 F10500 X51.219 Y65.317
;TYPE:WALL-INNER
G1 Z4.225
G1 F600 E615.36011
G1 F2100 X53.341 Y65.317 E615.42331
G1 X53.341 Y66.250 E615.45110
G1 X51.219 Y66.250 E615.51430
G1 X51.219 Y65.317 E615.54208
G0 F10500 X50.719 Y64.817
;TYPE:WALL-OUTER
G1 F1800 X53.841 Y64.817 E615.63507
G1 X53.841 Y66.750 E615.69264
G1 X50.719 Y66.750 E615.78562
G1 X50.719 Y64.817 E615.84319
G0 F10500 X51.069 Y65.077
G0 X51.969 Y66.067
G1 F600 E614.34319
G1 Z4.325
G0 F10500 X57.850 Y66.250
;TYPE:WALL-INNER
G1 Z4.225
G1 F600 E615.84319
G1 F2100 X57.850 Y65.317 E615.87098
G1 X59.817 Y65.317 E615.92957
G1 X59.817 Y66.250 E615.95735
G1 X57.850 Y66.250 E616.01594
G0 F10500 X57.349 Y66.750
;TYPE:WALL-OUTER
G1 F1800 X57.349 Y64.817 E616.07351
G1 X60.317 Y64.817 E616.16191
G1 X60.317 Y66.750 E616.21948
G1 X57.349 Y66.750 E616.30787
G0 F10500 X58.025 Y65.718
;TYPE:FILL
G1 F2400 X58.252 Y65.490 E616.31746
G1 F600 E614.81746
G1 Z4.325
G0 F10500 X64.325 Y65.317
;TYPE:WALL-INNER
G1 Z4.225
G1 F600 E616.31746
G1 F2100 X74.202 Y65.317 E616.61163
G1 X74.202 Y66.251 E616.63944
G1 X68.212 Y66.251 E616.81785
G1 X68.212 Y89.750 E617.51773
G1 X74.202 Y89.750 E617.69613
G1 X74.203 Y90.683 E617.72392
G1 X64.326 Y90.683 E618.01809
G1 X64.325 Y89.750 E618.04588
G1 X67.249 Y89.750 E618.13296
G1 X67.249 Y66.250 E618.83287
G1 X64.326 Y66.250 E618.91993
G1 X64.325 Y65.317 E618.94772
G0 F10500 X67.140 Y66.359
G0 X67.099 Y66.750
G0 X66.749 Y66.750
;TYPE:WALL-OUTER
G1 F1800 X63.826 Y66.750 E619.03477
G1 X63.825 Y64.817 E619.09234
G1 X74.703 Y64.817 E619.41633
G1 X74.703 Y66.751 E619.47393
G1 X68.712 Y66.751 E619.65236
G1 X68.712 Y89.250 E620.32246
G1 X74.702 Y89.250 E620.50086
G1 X74.703 Y91.183 E620.55843
G1 X63.826 Y91.183 E620.88239
G1 X63.825 Y89.250 E620.93996
G1 X66.749 Y89.250 E621.02704
G1 X66.749 Y66.750 E621.69717
G0 F10500 X67.099 Y66.750
G0 X67.140 Y66.359
G0 X65.323 Y65.491
;TYPE:FILL
G1 F2400 X64.739 Y66.074 E621.72175
G0 F10500 X69.027 Y65.491
G1 F2400 X69.611 Y66.075 E621.74634
G0 F10500 X71.809 Y66.076
G1 F2400 X72.394 Y65.491 E621.77098
G0 F10500 X68.321 Y66.360
G0 X68.036 Y69.849
G1 F2400 X67.423 Y70.709 E621.79671
G1 X68.037 Y71.572 E621.82826
G0 F10500 X68.036 Y76.920
G1 F2400 X67.423 Y77.780 E621.85399
G1 X68.037 Y78.643 E621.88553
G0 F10500 X68.036 Y83.991
G1 F2400 X67.423 Y84.852 E621.91128
G1 X68.037 Y85.714 E621.94280
G0 F10500 X68.321 Y89.641
G0 X69.174 Y89.924
G1 F2400 X68.591 Y90.507 E621.96736
G0 F10500 X65.758 Y90.506
G1 F2400 X65.175 Y89.924 E621.99189
G0 F10500 X72.247 Y89.924
G1 F2400 X72.829 Y90.506 E622.01641
G1 F600 E620.51641
G1 Z4.325
G0 F10500 X78.711 Y66.251
;TYPE:WALL-INNER
G1 Z4.225
G1 F600 E622.01641
G1 F2100 X78.711 Y65.317 E622.04423
G1 X81.518 Y65.317 E622.12783
G1 X81.518 Y66.251 E622.15565
G1 X78.711 Y66.251 E622.23925
G0 F10500 X78.211 Y66.751
;TYPE:WALL-OUTER
G1 F1800 X78.211 Y64.817 E622.29685
G1 X82.019 Y64.817 E622.41026
G1 X82.019 Y66.751 E622.46786
G1 X78.211 Y66.751 E622.58128
G0 F10500 X78.885 Y66.071
;TYPE:FILL
G1 F2400 X79.464 Y65.492 E622.60567
G1 F600 E621.10567
G1 Z4.325
G0 F10500 X86.027 Y65.317
;TYPE:WALL-INNER
G1 Z4.225
G1 F600 E622.60567
G1 F2100 X102.537 Y65.317 E623.09739
G1 X102.537 Y66.251 E623.12521
G1 X92.751 Y66.251 E623.41667
G1 X92.751 Y89.750 E624.11655
G1 X102.537 Y89.750 E624.40801
G1 X102.537 Y90.683 E624.43580
G1 X86.027 Y90.683 E624.92752
G1 X86.027 Y89.750 E624.95531
G1 X91.711 Y89.750 E625.12460
G1 X91.711 Y66.251 E625.82448
G1 X86.027 Y66.251 E625.99377
G1 X86.027 Y65.317 E626.02158
G0 F10500 X85.527 Y64.817
;TYPE:WALL-OUTER
G1 F1800 X103.037 Y64.817 E626.54309
G1 X103.037 Y66.751 E626.60069
G1 X93.251 Y66.751 E626.89215
G1 X93.251 Y89.250 E627.56225
G1 X103.037 Y89.250 E627.85371
G1 X103.037 Y91.183 E627.91128
G1 X85.527 Y91.183 E628.43279
G1 X85.527 Y89.250 E628.49036
G1 X91.211 Y89.250 E628.65965
G1 X91.211 Y66.751 E629.32974
G1 X85.527 Y66.751 E629.49903
G1 X85.527 Y64.817 E629.55663
G0 F10500 X86.201 Y65.826
;TYPE:FILL
G1 F2400 X86.536 Y65.491 E629.57074
G0 F10500 X90.240 Y65.491
G1 F2400 X90.824 Y66.075 E629.59534
G0 F10500 X91.884 Y67.136
G1 F2400 X92.230 Y67.519 E629.62439
G1 X92.799 Y66.299 E629.65342
G1 X93.607 Y65.491 E629.68746
G0 F10500 X97.311 Y65.491
G1 F2400 X97.895 Y66.075 E629.71205
G0 F10500 X92.860 Y66.360
G0 X92.575 Y73.594
G1 F2400 X91.884 Y74.245 E629.74106
G1 X92.575 Y74.897 E629.76936
G0 F10500 X92.575 Y80.666
G1 F2400 X91.884 Y81.316 E629.79840
G1 X92.575 Y81.968 E629.82670
G0 F10500 X92.575 Y87.737
G1 F2400 X91.884 Y88.387 E629.85575
G1 X92.575 Y89.039 E629.88404
G0 F10500 X93.460 Y89.924
G1 F2400 X94.042 Y90.506 E629.90856
G0 F10500 X96.875 Y90.507
G1 F2400 X97.458 Y89.924 E629.93311
G0 F10500 X90.388 Y89.924
G1 F2400 X89.804 Y90.507 E629.95769
G0 F10500 X86.971 Y90.506
G1 F2400 X86.389 Y89.924 E629.98220
G0 F10500 X100.531 Y89.924
G1 F2400 X101.113 Y90.506 E630.00672
G0 F10500 X92.860 Y89.641
G0 X92.860 Y66.360
G0 X100.094 Y66.075
G1 F2400 X100.678 Y65.491 E630.03131
G1 F600 E628.53131
G1 Z4.325
G0 F10500 X107.045 Y65.317
;TYPE:WALL-INNER
G1 Z4.225
G1 F600 E630.03131
G1 F2100 X117.185 Y65.317 E630.33332
G1 X117.185 Y90.683 E631.08880
G1 X107.045 Y90.683 E631.39081
G1 X107.045 Y89.750 E631.41859
G1 X116.251 Y89.750 E631.69278
G1 X116.251 Y66.251 E632.39266
G1 X107.045 Y66.251 E632.66685
G1 X107.045 Y65.317 E632.69466
G0 F10500 X106.545 Y64.817
;TYPE:WALL-OUTER
G1 F1800 X117.685 Y64.817 E633.02645
G1 X117.685 Y91.183 E633.81172
G1 X106.545 Y91.183 E634.14351
G1 X106.545 Y89.250 E634.20108
G1 X115.751 Y89.250 E634.47526
G1 X115.751 Y66.751 E635.14536
G1 X106.545 Y66.751 E635.41955
G1 X106.545 Y64.817 E635.47715
G0 F10500 X107.219 Y66.021
;TYPE:FILL
G1 F2400 X107.749 Y65.491 E635.49947
G0 F10500 X111.454 Y65.492
G1 F2400 X112.037 Y66.075 E635.52403
G0 F10500 X114.235 Y66.076
G1 F2400 X114.820 Y65.491 E635.54867
G0 F10500 X116.142 Y66.360
G0 X116.425 Y70.463
G1 F2400 X116.717 Y71.002 E635.57320
G1 X117.009 Y70.374 E635.59383
G0 F10500 X117.009 Y77.445
G1 F2400 X116.425 Y77.781 E635.61839
G1 X117.009 Y78.118 E635.63847
G0 F10500 X117.009 Y84.516
G1 F2400 X116.425 Y84.852 E635.66304
G1 X117.009 Y85.189 E635.68312
G0 F10500 X116.142 Y89.641
G0 X114.673 Y89.924
G1 F2400 X115.256 Y90.507 E635.70767
G0 F10500 X111.600 Y89.924
G1 F2400 X111.017 Y90.508 E635.73225
G0 F10500 X108.185 Y90.507
G1 F2400 X107.602 Y89.924 E635.75681
G1 F600 E634.25681
G1 Z4.325
G0 F10500 X81.518 Y89.750
;TYPE:WALL-INNER
G1 Z4.225
G1 F600 E635.75681
G1 F2100 X81.519 Y90.683 E635.78460
G1 X78.711 Y90.683 E635.86823
G1 X78.711 Y89.750 E635.89601
G1 X81.518 Y89.750 E635.97962
G0 F10500 X82.018 Y89.250
;TYPE:WALL-OUTER
G1 F1800 X82.019 Y91.183 E636.03719
G1 X78.211 Y91.183 E636.15060
G1 X78.211 Y89.250 E636.20817
G1 X82.018 Y89.250 E636.32156
G0 F10500 X81.668 Y89.510
G0 X79.900 Y90.506
;TYPE:FILL
G1 F2400 X79.317 Y89.924 E636.34609
G1 F600 E634.84609
G1 Z4.325
G0 F10500 X59.817 Y89.750
;TYPE:WALL-INNER
G1 Z4.225
G1 F600 E636.34609
G1 F2100 X59.817 Y90.683 E636.37388
G1 X57.850 Y90.683 E636.43247
G1 X57.850 Y89.750 E636.46025
G1 X59.817 Y89.750 E636.51884
G0 F10500 X60.317 Y89.250
;TYPE:WALL-OUTER
G1 F1800 X60.317 Y91.183 E636.57641
G1 X57.349 Y91.183 E636.66481
G1 X57.349 Y89.250 E636.72238
G1 X60.317 Y89.250 E636.81078
G0 F10500 X59.967 Y89.510
G0 X58.687 Y90.506
;TYPE:FILL
G1 F2400 X58.104 Y89.924 E636.83531
G1 F600 E635.33531
G1 Z4.325
G0 F10500 X53.341 Y89.750
;TYPE:WALL-INNER
G1 Z4.225
G1 F600 E636.83531
G1 F2100 X53.341 Y90.683 E636.86310
G1 X51.219 Y90.683 E636.92630
G1 X51.219 Y89.750 E636.95409
G1 X53.341 Y89.750 E637.01729
G0 F10500 X53.841 Y89.250
;TYPE:WALL-OUTER
G1 F1800 X53.841 Y91.183 E637.07486
G1 X50.719 Y91.183 E637.16784
G1 X50.719 Y89.250 E637.22541
G1 X53.841 Y89.250 E637.31840
G0 F10500 X53.491 Y89.510
G0 X51.615 Y90.506
;TYPE:FILL
G1 F2400 X51.393 Y90.284 E637.32775
;LAYER:11
G1 F600 E635.82775
G1 Z4.325
G0 F10500 X46.331 Y90.683 Z4.605
;TYPE:WALL-INNER
G1 Z4.605
G1 F600 E637.32775
G1 F2100 X42.815 Y90.683 E637.43247
G1 X42.815 Y65.317 E638.18795
G1 X46.331 Y65.317 E638.29267
G1 X46.331 Y66.250 E638.32046
G1 X43.749 Y66.250 E638.39736
G1 X43.749 Y89.750 E639.09727
G1 X46.331 Y89.750 E639.17417
G1 X46.331 Y90.683 E639.20196
G0 F10500 X43.858 Y89.641
G0 X43.899 Y89.250
G0 X44.249 Y89.250
;TYPE:WALL-OUTER
G1 F1800 X46.831 Y89.250 E639.27886
G1 X46.831 Y91.183 E639.33643
G1 X42.315 Y91.183 E639.47093
G1 X42.315 Y64.817 E640.25620
G1 X46.831 Y64.817 E640.39070
G1 X46.831 Y66.750 E640.44827
G1 X44.249 Y66.750 E640.52517
G1 X44.249 Y89.250 E641.19530
G0 F10500 X43.962 Y89.924
;TYPE:FILL
G1 F2400 X44.545 Y90.507 E641.21985
G0 F10500 X43.574 Y89.535
G1 F2400 X42.989 Y88.951 E641.24447
G0 F10500 X42.989 Y87.824
G1 F2400 X43.574 Y87.240 E641.26909
G0 F10500 X43.574 Y82.464
G1 F2400 X42.989 Y81.880 E641.29371
G0 F10500 X42.989 Y80.753
G1 F2400 X43.574 Y80.169 E641.31833
G0 F10500 X43.574 Y75.393
G1 F2400 X42.989 Y74.809 E641.34295
G0 F10500 X42.989 Y73.682
G1 F2400 X43.574 Y73.098 E641.36757
G0 F10500 X43.574 Y68.322
G1 F2400 X42.989 Y67.738 E641.39219
G0 F10500 X42.989 Y66.611
G1 F2400 X44.110 Y65.491 E641.43938
G1 F600 E639.93938
G1 Z4.705
G0 F10500 X51.599 Y65.317
;TYPE:WALL-INNER
G1 Z4.605
G1 F600 E641.43938
G1 F2100 X52.961 Y65.317 E641.47995
G1 X52.961 Y66.250 E641.50774
G1 X51.599 Y66.250 E641.54830
G1 X51.599 Y65.317 E641.57609
G0 F10500 X51.099 Y64.817
;TYPE:WALL-OUTER
G1 F1800 X53.461 Y64.817 E641.64644
G1 X53.461 Y66.750 E641.70401
G1 X51.099 Y66.750 E641.77436
G1 X51.099 Y64.817 E641.83193
G0 F10500 X51.449 Y65.077
G0 X52.349 Y66.067
G1 F600 E640.33193
G1 Z4.705
G0 F10500 X58.230 Y66.250
;TYPE:WALL-INNER
G1 Z4.605
G1 F600 E641.83193
G1 F2100 X58.229 Y65.317 E641.85972
G1 X59.437 Y65.317 E641.89569
G1 X59.437 Y66.250 E641.92348
G1 X58.230 Y66.250 E641.95943
G0 F10500 X57.729 Y66.750
;TYPE:WALL-OUTER
G1 F1800 X57.729 Y64.817 E642.01700
G1 X59.937 Y64.817 E642.08276
G1 X59.937 Y66.750 E642.14034
G1 X57.729 Y66.750 E642.20610
G0 F10500 X58.080 Y66.490
G0 X58.980 Y65.500
G1 F600 E640.70610
G1 Z4.705
G0 F10500 X64.705 Y65.317
;TYPE:WALL-INNER
G1 Z4.605
G1 F600 E642.20610
G1 F2100 X73.822 Y65.317 E642.47763
G1 X73.823 Y66.251 E642.50545
G1 X68.212 Y66.251 E642.67256
G1 X68.212 Y89.750 E643.37244
G1 X73.822 Y89.750 E643.53953
G1 X73.823 Y90.683 E643.56732
G1 X64.706 Y90.683 E643.83885
G1 X64.705 Y89.750 E643.86664
G1 X67.249 Y89.750 E643.94241
G1 X67.249 Y66.250 E644.64232
G1 X64.706 Y66.250 E644.71806
G1 X64.705 Y65.317 E644.74585
G0 F10500 X67.140 Y66.359
G0 X67.099 Y66.750
G0 X66.749 Y66.750
;TYPE:WALL-OUTER
G1 F1800 X64.206 Y66.750 E644.82158
G1 X64.205 Y64.817 E644.87916
G1 X74.323 Y64.817 E645.18050
G1 X74.323 Y66.751 E645.23811
G1 X68.712 Y66.751 E645.40522
G1 X68.712 Y89.250 E646.07532
G1 X74.322 Y89.250 E646.24240
G1 X74.323 Y91.183 E646.29997
G1 X64.206 Y91.183 E646.60129
G1 X64.205 Y89.250 E646.65886
G1 X66.749 Y89.250 E646.73463
G1 X66.749 Y66.750 E647.40476
G0 F10500 X67.099 Y66.750
G0 X67.140 Y66.359
G0 X65.323 Y65.490
;TYPE:FILL
G1 F2400 X64.880 Y65.934 E647.42344
G0 F10500 X69.027 Y65.491
G1 F2400 X69.611 Y66.075 E647.44804
G0 F10500 X71.809 Y66.076
G1 F2400 X72.394 Y65.491 E647.47268
G0 F10500 X68.321 Y66.360
G0 X68.036 Y69.849
G1 F2400 X67.423 Y70.709 E647.49841
G1 X68.037 Y71.572 E647.52995
G0 F10500 X68.036 Y76.920
G1 F2400 X67.423 Y77.780 E647.55568
G1 X68.037 Y78.643 E647.58722
G0 F10500 X68.036 Y83.991
G1 F2400 X67.423 Y84.852 E647.61297
G1 X68.037 Y85.714 E647.64449
G0 F10500 X68.321 Y89.641
G0 X69.174 Y89.924
G1 F2400 X68.591 Y90.507 E647.66905
G0 F10500 X65.758 Y90.506
G1 F2400 X65.175 Y89.924 E647.69359
G0 F10500 X72.247 Y89.924
G1 F2400 X72.829 Y90.506 E647.71810
G1 F600 E646.21810
G1 Z4.705
G0 F10500 X79.091 Y66.251
;TYPE:WALL-INNER
G1 Z4.605
G1 F600 E647.71810
G1 F2100 X79.091 Y65.317 E647.74592
G1 X81.138 Y65.317 E647.80688
G1 X81.139 Y66.251 E647.83470
G1 X79.091 Y66.251 E647.89570
G0 F10500 X78.591 Y66.751
;TYPE:WALL-OUTER
G1 F1800 X78.591 Y64.817 E647.95330
G1 X81.639 Y64.817 E648.04408
G1 X81.639 Y66.751 E648.10168
G1 X78.591 Y66.751 E648.19246
G0 F10500 X79.265 Y65.691
;TYPE:FILL
G1 F2400 X79.464 Y65.492 E648.20084
G1 F600 E646.70084
G1 Z4.705
G0 F10500 X86.407 Y65.317
;TYPE:WALL-INNER
G1 Z4.605
G1 F600 E648.20084
G1 F2100 X102.157 Y65.317 E648.66993
G1 X102.157 Y66.251 E648.69775
G1 X92.751 Y66.251 E648.97789
G1 X92.751 Y89.750 E649.67777
G1 X102.157 Y89.750 E649.95791
G1 X102.157 Y90.683 E649.98570
G1 X86.407 Y90.683 E650.45479
G1 X86.407 Y89.750 E650.48258
G1 X91.711 Y89.750 E650.64055
G1 X91.711 Y66.251 E651.34043
G1 X86.407 Y66.251 E651.49840
G1 X86.407 Y65.317 E651.52621
G0 F10500 X85.907 Y64.817
;TYPE:WALL-OUTER
G1 F1800 X102.657 Y64.817 E652.02509
G1 X102.657 Y66.751 E652.08269
G1 X93.251 Y66.751 E652.36283
G1 X93.251 Y89.250 E653.03293
G1 X102.657 Y89.250 E653.31307
G1 X102.657 Y91.183 E653.37064
G1 X85.907 Y91.183 E653.86951
G1 X85.907 Y89.250 E653.92708
G1 X91.211 Y89.250 E654.08505
G1 X91.211 Y66.751 E654.75515
G1 X85.907 Y66.751 E654.91312
G1 X85.907 Y64.817 E654.97072
G0 F10500 X86.257 Y65.077
G0 X90.240 Y65.492
;TYPE:FILL
G1 F2400 X90.825 Y66.076 E654.99534
G0 F10500 X91.884 Y67.136
G1 F2400 X92.230 Y67.519 E655.02440
G1 X92.799 Y66.299 E655.05342
G1 X93.606 Y65.492 E655.08741
G0 F10500 X97.312 Y65.492
G1 F2400 X97.895 Y66.075 E655.11197
G0 F10500 X92.860 Y66.360
G0 X92.575 Y73.594
G1 F2400 X91.884 Y74.245 E655.14098
G1 X92.575 Y74.897 E655.16928
G0 F10500 X92.575 Y80.666
G1 F2400 X91.884 Y81.316 E655.19832
G1 X92.575 Y81.968 E655.22662
G0 F10500 X92.575 Y87.737
G1 F2400 X91.884 Y88.387 E655.25566
G1 X92.575 Y89.039 E655.28396
G0 F10500 X93.460 Y89.924
G1 F2400 X94.043 Y90.507 E655.30851
G0 F10500 X96.875 Y90.507
G1 F2400 X97.458 Y89.924 E655.33307
G0 F10500 X90.388 Y89.924
G1 F2400 X89.804 Y90.507 E655.35765
G0 F10500 X86.972 Y90.507
G1 F2400 X86.581 Y90.117 E655.37410
G0 F10500 X100.531 Y89.924
G1 F2400 X101.114 Y90.507 E655.39865
G0 F10500 X92.860 Y89.641
G0 X92.860 Y66.360
G0 X100.094 Y66.075
G1 F2400 X100.677 Y65.492 E655.42321
G1 F600 E653.92321
G1 Z4.705
G0 F10500 X107.425 Y65.317
;TYPE:WALL-INNER
G1 Z4.605
G1 F600 E655.42321
G1 F2100 X117.185 Y65.317 E655.71389
G1 X117.185 Y90.683 E656.46938
G1 X107.425 Y90.683 E656.76006
G1 X107.425 Y89.750 E656.78785
G1 X116.251 Y89.750 E657.05072
G1 X116.251 Y66.251 E657.75060
G1 X107.425 Y66.251 E658.01347
G1 X107.425 Y65.317 E658.04129
G0 F10500 X106.925 Y64.817
;TYPE:WALL-OUTER
G1 F1800 X117.685 Y64.817 E658.36176
G1 X117.685 Y91.183 E659.14702
G1 X106.925 Y91.183 E659.46749
G1 X106.925 Y89.250 E659.52506
G1 X115.751 Y89.250 E659.78793
G1 X115.751 Y66.751 E660.45803
